;FLAVOR:Marlin
;TIME:20342
;Filament used: 16.2896m
;Layer height: 0.2
;MINX:20.777
;MINY:46.377
;MINZ:0.2
;MAXX:198.197
;MAXY:171.048
;MAXZ:12.4
;Generated with Cura_SteamEngine 5.4.0
M82 ;absolute extrusion mode
; Ender 3 Custom Start G-code
G92 E0 ; Reset Extruder
G28 ; Home all axes
M104 S175 ; Start heating up the nozzle most of the way
M190 S60 ; Start heating the bed, wait until target temperature reached
M109 S200 ; Finish heating the nozzle
G1 Z2.0 F3000 ; Move Z Axis up little to prevent scratching of Heat Bed
G1 X0.1 Y20 Z0.3 F5000.0 ; Move to start position
G1 X0.1 Y200.0 Z0.3 F1500.0 E15 ; Draw the first line
G1 X0.4 Y200.0 Z0.3 F5000.0 ; Move to side a little
G1 X0.4 Y20 Z0.3 F1500.0 E30 ; Draw the second line
G92 E0 ; Reset Extruder
G1 Z2.0 F3000 ; Move Z Axis up little to prevent scratching of Heat Bed
G1 X5 Y20 Z0.3 F5000.0 ; Move over to prevent blob squish
G92 E0
G92 E0
G1 F1500 E-6.5
;LAYER_COUNT:62
;LAYER:0
M107
G0 F6000 X26.546 Y51.186 Z0.2
;TYPE:SKIRT
G1 F1500 E0
G1 F1200 X27.487 Y50.734 E0.03472
G1 X28.399 Y50.393 E0.06711
G1 X29.339 Y50.134 E0.09954
G1 X30.304 Y49.958 E0.13216
G1 X31.432 Y49.863 E0.16981
G1 X32.089 Y49.848 E0.19167
G1 X58.22 Y49.848 E1.06079
G1 X60.804 Y49.811 E1.14674
G1 X63.369 Y49.702 E1.23213
G1 X65.848 Y49.526 E1.31479
G1 X68.349 Y49.279 E1.39838
G1 X70.857 Y48.958 E1.48248
G1 X73.34 Y48.568 E1.56607
G1 X75.78 Y48.114 E1.64862
G1 X78.303 Y47.572 E1.73445
G1 X80.908 Y46.931 E1.82368
G1 X81.678 Y46.732 E1.85013
G1 X82.632 Y46.531 E1.88256
G1 X83.528 Y46.422 E1.91258
G1 X84.104 Y46.39 E1.93176
G1 X84.711 Y46.377 E1.95196
G1 X133.103 Y46.377 E3.56148
G1 X133.985 Y46.39 E3.59082
G1 X134.955 Y46.449 E3.62314
G1 X135.802 Y46.573 E3.65161
G1 X136.84 Y46.766 E3.68673
G1 X137.754 Y46.949 E3.71773
G1 X140.179 Y47.365 E3.79957
G1 X142.749 Y47.73 E3.8859
G1 X145.167 Y48.005 E3.96685
G1 X147.733 Y48.224 E4.0525
G1 X150.177 Y48.362 E4.13392
G1 X154.141 Y48.446 E4.26579
G1 X186.648 Y48.447 E5.34698
G1 X187.381 Y48.459 E5.37136
G1 X188.353 Y48.518 E5.40375
G1 X189.316 Y48.664 E5.43615
G1 X190.263 Y48.895 E5.46857
G1 X191.151 Y49.195 E5.49974
G1 X192.043 Y49.585 E5.53212
G1 X192.926 Y50.072 E5.56566
G1 X193.677 Y50.574 E5.5957
G1 X194.492 Y51.232 E5.63054
G1 X195.19 Y51.91 E5.66291
G1 X195.826 Y52.647 E5.69529
G1 X196.396 Y53.437 E5.72769
G1 X196.858 Y54.213 E5.75773
G1 X197.312 Y55.155 E5.79251
G1 X197.641 Y56.033 E5.82369
G1 X197.91 Y57.005 E5.85723
G1 X198.087 Y57.971 E5.8899
G1 X198.182 Y59.096 E5.92745
G1 X198.197 Y59.77 E5.94987
G1 X198.196 Y158.062 E9.21908
G1 X198.184 Y158.823 E9.24439
G1 X198.126 Y159.796 E9.27681
G1 X197.98 Y160.759 E9.30921
G1 X197.749 Y161.706 E9.34163
G1 X197.436 Y162.628 E9.37401
G1 X197.044 Y163.519 E9.40639
G1 X196.592 Y164.341 E9.43759
G1 X196.03 Y165.179 E9.47115
G1 X195.44 Y165.909 E9.50237
G1 X194.737 Y166.635 E9.53598
G1 X194.001 Y167.271 E9.56833
G1 X193.211 Y167.841 E9.60073
G1 X192.435 Y168.304 E9.63079
G1 X191.495 Y168.757 E9.66549
G1 X190.582 Y169.099 E9.69792
G1 X189.644 Y169.358 E9.73029
G1 X188.678 Y169.535 E9.76295
G1 X187.542 Y169.631 E9.80087
G1 X186.885 Y169.646 E9.82273
G1 X147.692 Y169.646 E11.12629
G1 X145.108 Y169.683 E11.21224
G1 X142.543 Y169.792 E11.29763
G1 X140.064 Y169.968 E11.38029
G1 X137.563 Y170.215 E11.46388
G1 X135.046 Y170.537 E11.54828
G1 X132.603 Y170.914 E11.6305
G1 X131.271 Y171.035 E11.67498
G1 X130.647 Y171.048 E11.69574
G1 X32.341 Y171.047 E14.96541
G1 X31.608 Y171.036 E14.98979
G1 X30.636 Y170.979 E15.02218
G1 X29.673 Y170.833 E15.05457
G1 X28.727 Y170.604 E15.08694
G1 X27.803 Y170.292 E15.11938
G1 X26.913 Y169.9 E15.15173
G1 X26.09 Y169.449 E15.18294
G1 X25.251 Y168.888 E15.21651
G1 X24.547 Y168.322 E15.24655
G1 X23.794 Y167.597 E15.28132
G1 X23.157 Y166.861 E15.3137
G1 X22.627 Y166.13 E15.34373
G1 X22.091 Y165.233 E15.37848
G1 X21.669 Y164.355 E15.41088
G1 X21.327 Y163.443 E15.44328
G1 X21.067 Y162.505 E15.47565
G1 X20.889 Y161.536 E15.50842
G1 X20.791 Y160.357 E15.54777
G1 X20.777 Y159.706 E15.56943
G1 X20.778 Y61.386 E18.83956
G1 X20.79 Y60.662 E18.86365
G1 X20.849 Y59.688 E18.8961
G1 X20.996 Y58.727 E18.92844
G1 X21.227 Y57.78 E18.96086
G1 X21.527 Y56.892 E18.99203
G1 X21.933 Y55.967 E19.02563
G1 X22.368 Y55.175 E19.05568
G1 X22.95 Y54.309 E19.09039
G1 X23.564 Y53.552 E19.12281
G1 X24.242 Y52.854 E19.15517
G1 X24.979 Y52.218 E19.18755
G1 X25.77 Y51.648 E19.21998
G1 X26.546 Y51.186 E19.25002
G0 F6000 X26.751 Y51.53
G1 F1200 X27.628 Y51.108 E19.28239
G1 X28.506 Y50.778 E19.31358
G1 X29.411 Y50.527 E19.34482
G1 X30.338 Y50.357 E19.37617
G1 X31.466 Y50.262 E19.41382
G1 X32.098 Y50.248 E19.43484
G1 X58.226 Y50.248 E20.30386
G1 X60.821 Y50.211 E20.39018
G1 X63.386 Y50.102 E20.47557
G1 X65.879 Y49.925 E20.5587
G1 X68.4 Y49.676 E20.64295
G1 X70.908 Y49.355 E20.72705
G1 X73.402 Y48.963 E20.81102
G1 X75.866 Y48.505 E20.89438
G1 X78.387 Y47.963 E20.98014
G1 X81.004 Y47.319 E21.06978
G1 X81.761 Y47.123 E21.09579
G1 X82.68 Y46.928 E21.12703
G1 X83.576 Y46.819 E21.15706
G1 X84.113 Y46.79 E21.17494
G1 X84.72 Y46.777 E21.19514
G1 X133.097 Y46.777 E22.80416
G1 X133.961 Y46.789 E22.8329
G1 X134.897 Y46.845 E22.86409
G1 X135.729 Y46.966 E22.89205
G1 X136.761 Y47.158 E22.92696
G1 X137.679 Y47.342 E22.9581
G1 X140.123 Y47.761 E23.04058
G1 X142.693 Y48.126 E23.12691
G1 X145.133 Y48.404 E23.20859
G1 X147.699 Y48.622 E23.29425
G1 X150.169 Y48.762 E23.37653
G1 X154.133 Y48.846 E23.5084
G1 X186.642 Y48.847 E24.58966
G1 X187.357 Y48.858 E24.61344
G1 X188.294 Y48.914 E24.64466
G1 X189.222 Y49.053 E24.67587
G1 X190.135 Y49.274 E24.70712
G1 X190.991 Y49.562 E24.73715
G1 X191.883 Y49.952 E24.76953
G1 X192.704 Y50.405 E24.80072
G1 X193.455 Y50.907 E24.83077
G1 X194.214 Y51.519 E24.8632
G1 X194.888 Y52.172 E24.89441
G1 X195.502 Y52.881 E24.9256
G1 X196.052 Y53.642 E24.95683
G1 X196.514 Y54.418 E24.98687
G1 X196.937 Y55.295 E25.01926
G1 X197.266 Y56.173 E25.05044
G1 X197.517 Y57.078 E25.08168
G1 X197.688 Y58.005 E25.11303
G1 X197.783 Y59.13 E25.15058
G1 X197.797 Y59.77 E25.17187
G1 X197.796 Y158.056 E28.44088
G1 X197.785 Y158.8 E28.46563
G1 X197.73 Y159.737 E28.49684
G1 X197.591 Y160.665 E28.52805
G1 X197.37 Y161.578 E28.5593
G1 X197.07 Y162.467 E28.5905
G1 X196.693 Y163.326 E28.62171
G1 X196.241 Y164.148 E28.65291
G1 X195.718 Y164.928 E28.68414
G1 X195.152 Y165.631 E28.71416
G1 X194.475 Y166.333 E28.7466
G1 X193.767 Y166.947 E28.77777
G1 X193.006 Y167.497 E28.809
G1 X192.23 Y167.96 E28.83905
G1 X191.354 Y168.383 E28.87141
G1 X190.475 Y168.714 E28.90265
G1 X189.571 Y168.965 E28.93385
G1 X188.644 Y169.136 E28.9652
G1 X187.508 Y169.232 E29.00312
G1 X186.876 Y169.246 E29.02415
G1 X147.686 Y169.246 E30.32761
G1 X145.091 Y169.283 E30.41393
G1 X142.526 Y169.392 E30.49932
G1 X140.033 Y169.569 E30.58244
G1 X137.512 Y169.818 E30.6667
G1 X134.995 Y170.14 E30.7511
G1 X132.567 Y170.516 E30.83282
G1 X131.263 Y170.635 E30.87637
G1 X130.647 Y170.648 E30.89686
G1 X32.347 Y170.647 E34.16633
G1 X31.631 Y170.637 E34.19015
G1 X30.695 Y170.583 E34.22133
G1 X29.766 Y170.444 E34.25258
G1 X28.854 Y170.225 E34.28377
G1 X27.964 Y169.926 E34.315
G1 X27.105 Y169.549 E34.3462
G1 X26.282 Y169.098 E34.37741
G1 X25.502 Y168.576 E34.40863
G1 X24.798 Y168.01 E34.43867
G1 X24.096 Y167.335 E34.47107
G1 X23.481 Y166.626 E34.50228
G1 X22.951 Y165.895 E34.53231
G1 X22.451 Y165.059 E34.56471
G1 X22.043 Y164.214 E34.59592
G1 X21.712 Y163.336 E34.62713
G1 X21.46 Y162.432 E34.65834
G1 X21.288 Y161.503 E34.68977
G1 X21.19 Y160.324 E34.72912
G1 X21.177 Y159.706 E34.74968
G1 X21.178 Y61.392 E38.01961
G1 X21.189 Y60.686 E38.0431
G1 X21.245 Y59.748 E38.07435
G1 X21.385 Y58.821 E38.10553
G1 X21.606 Y57.908 E38.13678
G1 X21.894 Y57.052 E38.16682
G1 X22.284 Y56.16 E38.19919
G1 X22.719 Y55.368 E38.22925
G1 X23.261 Y54.56 E38.26161
G1 X23.851 Y53.83 E38.29283
G1 X24.504 Y53.156 E38.32404
G1 X25.213 Y52.542 E38.35524
G1 X25.975 Y51.992 E38.38649
G1 X26.751 Y51.53 E38.41653
G0 F6000 X26.956 Y51.874
G1 F1200 X27.769 Y51.482 E38.44655
G1 X28.614 Y51.163 E38.47659
G1 X29.484 Y50.92 E38.50663
G1 X30.372 Y50.756 E38.53667
G1 X31.5 Y50.661 E38.57432
G1 X32.107 Y50.648 E38.59451
G1 X58.232 Y50.648 E39.46343
G1 X60.838 Y50.611 E39.55012
G1 X63.403 Y50.502 E39.63551
G1 X65.91 Y50.324 E39.7191
G1 X68.451 Y50.073 E39.80403
G1 X70.959 Y49.752 E39.88812
G1 X73.464 Y49.358 E39.97246
G1 X75.951 Y48.896 E40.0566
G1 X78.471 Y48.354 E40.14233
G1 X81.1 Y47.707 E40.23238
G1 X81.845 Y47.514 E40.25798
G1 X82.728 Y47.325 E40.28801
G1 X83.624 Y47.216 E40.31803
G1 X84.122 Y47.19 E40.33462
G1 X84.729 Y47.177 E40.35481
G1 X133.092 Y47.177 E41.96337
G1 X133.938 Y47.188 E41.99151
G1 X134.84 Y47.241 E42.02156
G1 X135.656 Y47.359 E42.04899
G1 X136.682 Y47.55 E42.0837
G1 X137.604 Y47.735 E42.11497
G1 X140.067 Y48.157 E42.19809
G1 X142.637 Y48.522 E42.28442
G1 X145.099 Y48.803 E42.36684
G1 X147.665 Y49.02 E42.45249
G1 X150.161 Y49.162 E42.53564
G1 X154.125 Y49.246 E42.66752
G1 X186.636 Y49.247 E43.74884
G1 X187.334 Y49.257 E43.77205
G1 X188.236 Y49.31 E43.80211
G1 X189.129 Y49.442 E43.83213
G1 X190.007 Y49.653 E43.86216
G1 X190.863 Y49.941 E43.8922
G1 X191.69 Y50.303 E43.92223
G1 X192.482 Y50.738 E43.95228
G1 X193.233 Y51.24 E43.98233
G1 X193.936 Y51.807 E44.01237
G1 X194.586 Y52.434 E44.0424
G1 X195.178 Y53.116 E44.07244
G1 X195.708 Y53.847 E44.10247
G1 X196.17 Y54.623 E44.13251
G1 X196.563 Y55.436 E44.16254
G1 X196.881 Y56.281 E44.19257
G1 X197.124 Y57.151 E44.22262
G1 X197.289 Y58.039 E44.25266
G1 X197.384 Y59.164 E44.29021
G1 X197.397 Y59.77 E44.31037
G1 X197.396 Y158.05 E47.57918
G1 X197.386 Y158.777 E47.60336
G1 X197.334 Y159.679 E47.63341
G1 X197.202 Y160.572 E47.66343
G1 X196.991 Y161.451 E47.6935
G1 X196.704 Y162.307 E47.72353
G1 X196.342 Y163.134 E47.75355
G1 X195.908 Y163.926 E47.78359
G1 X195.406 Y164.677 E47.81364
G1 X194.84 Y165.38 E47.84365
G1 X194.213 Y166.031 E47.87372
G1 X193.532 Y166.623 E47.90373
G1 X192.801 Y167.153 E47.93376
G1 X192.025 Y167.616 E47.96381
G1 X191.212 Y168.009 E47.99385
G1 X190.367 Y168.329 E48.0239
G1 X189.498 Y168.572 E48.05391
G1 X188.61 Y168.737 E48.08395
G1 X187.474 Y168.833 E48.12187
G1 X186.867 Y168.846 E48.14206
G1 X147.68 Y168.846 E49.44543
G1 X145.074 Y168.883 E49.53211
G1 X142.509 Y168.992 E49.6175
G1 X140.002 Y169.17 E49.7011
G1 X137.461 Y169.421 E49.78602
G1 X134.944 Y169.743 E49.87042
G1 X132.53 Y170.118 E49.95167
G1 X131.254 Y170.235 E49.99429
G1 X130.647 Y170.248 E50.01448
G1 X32.352 Y170.247 E53.28379
G1 X31.654 Y170.238 E53.30701
G1 X30.753 Y170.187 E53.33702
G1 X29.859 Y170.055 E53.36708
G1 X28.981 Y169.846 E53.3971
G1 X28.124 Y169.559 E53.42716
G1 X27.297 Y169.198 E53.45717
G1 X26.504 Y168.765 E53.48722
G1 X25.753 Y168.264 E53.51725
G1 X25.049 Y167.698 E53.54729
G1 X24.398 Y167.072 E53.57733
G1 X23.805 Y166.391 E53.60736
G1 X23.275 Y165.66 E53.6374
G1 X22.811 Y164.885 E53.66744
G1 X22.417 Y164.072 E53.69749
G1 X22.097 Y163.228 E53.72751
G1 X21.853 Y162.358 E53.75756
G1 X21.687 Y161.47 E53.78761
G1 X21.59 Y160.315 E53.82616
G1 X21.577 Y159.706 E53.84642
G1 X21.578 Y61.398 E57.11616
G1 X21.588 Y60.709 E57.13907
G1 X21.641 Y59.807 E57.16913
G1 X21.774 Y58.914 E57.19916
G1 X21.985 Y58.036 E57.22919
G1 X22.273 Y57.18 E57.25923
G1 X22.635 Y56.353 E57.28925
G1 X23.07 Y55.561 E57.31931
G1 X23.572 Y54.811 E57.34933
G1 X24.139 Y54.108 E57.37937
G1 X24.766 Y53.458 E57.4094
G1 X25.448 Y52.866 E57.43944
G1 X26.18 Y52.336 E57.4695
G1 X26.956 Y51.874 E57.49954
G1 F1500 E50.99954
;MESH:ZDM4MS - quadrado.stl
G0 F6000 X83.734 Y57.797
G0 X133.199 Y106.177
;TYPE:WALL-INNER
G1 F1500 E57.49954
G1 F1200 X133.199 Y57.977 E59.10267
G1 X84.999 Y57.977 E60.70581
G1 X84.999 Y106.177 E62.30895
G1 X133.199 Y106.177 E63.91209
G0 F6000 X133.599 Y106.577
;TYPE:WALL-OUTER
G1 F1200 X133.599 Y57.577 E65.54184
G1 X84.599 Y57.577 E67.17158
G1 X84.599 Y106.577 E68.80133
G1 X133.599 Y106.577 E70.43108
G0 F6000 X133.329 Y106.307
G0 X133.099 Y105.817
G0 X132.839 Y105.817
;TYPE:SKIN
G1 F1200 X85.359 Y105.817 E72.01027
G1 X85.359 Y58.337 E73.58946
G1 X132.839 Y58.337 E75.16865
G1 X132.839 Y105.817 E76.74784
G1 F1500 E70.24784
G0 F6000 X133.099 Y105.817
G0 X133.099 Y59.099
G0 X132.638 Y59.099
G1 F1500 E76.74784
G1 F1200 X132.076 Y58.537 E76.77428
G0 F6000 X131.51 Y58.537
G1 F1200 X132.638 Y59.664 E76.82731
G0 F6000 X132.638 Y60.23
G1 F1200 X130.944 Y58.537 E76.90697
G0 F6000 X130.379 Y58.537
G1 F1200 X132.638 Y60.796 E77.01322
G0 F6000 X132.638 Y61.362
G1 F1200 X129.813 Y58.537 E77.1461
G0 F6000 X129.247 Y58.537
G1 F1200 X132.638 Y61.927 E77.30558
G0 F6000 X132.638 Y62.493
G1 F1200 X128.682 Y58.537 E77.49166
G0 F6000 X128.116 Y58.537
G1 F1200 X132.638 Y63.059 E77.70436
G0 F6000 X132.638 Y63.624
G1 F1200 X127.55 Y58.537 E77.94366
G0 F6000 X126.985 Y58.537
G1 F1200 X132.638 Y64.19 E78.20956
G0 F6000 X132.638 Y64.756
G1 F1200 X126.419 Y58.537 E78.50208
G0 F6000 X125.853 Y58.537
G1 F1200 X132.638 Y65.321 E78.82121
G0 F6000 X132.638 Y65.887
G1 F1200 X125.288 Y58.537 E79.16693
G0 F6000 X124.722 Y58.537
G1 F1200 X132.638 Y66.453 E79.53927
G0 F6000 X132.638 Y67.018
G1 F1200 X124.156 Y58.537 E79.93822
G0 F6000 X123.59 Y58.537
G1 F1200 X132.638 Y67.584 E80.36378
G0 F6000 X132.638 Y68.15
G1 F1200 X123.025 Y58.537 E80.81595
G0 F6000 X122.459 Y58.537
G1 F1200 X132.638 Y68.715 E81.29471
G0 F6000 X132.638 Y69.281
G1 F1200 X121.893 Y58.537 E81.8001
G0 F6000 X121.328 Y58.537
G1 F1200 X132.638 Y69.847 E82.33209
G0 F6000 X132.638 Y70.412
G1 F1200 X120.762 Y58.537 E82.89068
G0 F6000 X120.196 Y58.537
G1 F1200 X132.638 Y70.978 E83.47589
G0 F6000 X132.638 Y71.544
G1 F1200 X119.631 Y58.537 E84.0877
G0 F6000 X119.065 Y58.537
G1 F1200 X132.638 Y72.11 E84.72613
G0 F6000 X132.638 Y72.675
G1 F1200 X118.499 Y58.537 E85.39116
G0 F6000 X117.934 Y58.537
G1 F1200 X132.638 Y73.241 E86.08279
G0 F6000 X132.638 Y73.807
G1 F1200 X117.368 Y58.537 E86.80105
G0 F6000 X116.802 Y58.537
G1 F1200 X132.638 Y74.372 E87.5459
G0 F6000 X132.638 Y74.938
G1 F1200 X116.237 Y58.537 E88.31735
G0 F6000 X115.671 Y58.537
G1 F1200 X132.638 Y75.504 E89.11543
G0 F6000 X132.638 Y76.069
G1 F1200 X115.105 Y58.537 E89.9401
G0 F6000 X114.539 Y58.537
G1 F1200 X132.638 Y76.635 E90.7914
G0 F6000 X132.638 Y77.201
G1 F1200 X113.974 Y58.537 E91.6693
G0 F6000 X113.408 Y58.537
G1 F1200 X132.638 Y77.766 E92.57379
G0 F6000 X132.638 Y78.332
G1 F1200 X112.842 Y58.537 E93.50491
G0 F6000 X112.277 Y58.537
G1 F1200 X132.638 Y78.898 E94.46263
G0 F6000 X132.638 Y79.463
G1 F1200 X111.711 Y58.537 E95.44695
G0 F6000 X111.145 Y58.537
G1 F1200 X132.638 Y80.029 E96.45789
G0 F6000 X132.638 Y80.595
G1 F1200 X110.58 Y58.537 E97.49543
G0 F6000 X110.014 Y58.537
G1 F1200 X132.638 Y81.161 E98.5596
G0 F6000 X132.638 Y81.726
G1 F1200 X109.448 Y58.537 E99.65036
G0 F6000 X108.883 Y58.537
G1 F1200 X132.638 Y82.292 E100.76772
G0 F6000 X132.638 Y82.858
G1 F1200 X108.317 Y58.537 E101.91171
G0 F6000 X107.751 Y58.537
G1 F1200 X132.638 Y83.423 E103.08229
G0 F6000 X132.638 Y83.989
G1 F1200 X107.186 Y58.537 E104.27948
G0 F6000 X106.62 Y58.537
G1 F1200 X132.638 Y84.555 E105.50328
G0 F6000 X132.638 Y85.12
G1 F1200 X106.054 Y58.537 E106.75369
G0 F6000 X105.489 Y58.537
G1 F1200 X132.638 Y85.686 E108.0307
G0 F6000 X132.638 Y86.252
G1 F1200 X104.923 Y58.537 E109.33432
G0 F6000 X104.357 Y58.537
G1 F1200 X132.638 Y86.817 E110.66455
G0 F6000 X132.638 Y87.383
G1 F1200 X103.791 Y58.537 E112.0214
G0 F6000 X103.226 Y58.537
G1 F1200 X132.638 Y87.949 E113.40485
G0 F6000 X132.638 Y88.514
G1 F1200 X102.66 Y58.537 E114.8149
G0 F6000 X102.094 Y58.537
G1 F1200 X132.638 Y89.08 E116.25158
G0 F6000 X132.638 Y89.646
G1 F1200 X101.529 Y58.537 E117.71485
G0 F6000 X100.963 Y58.537
G1 F1200 X132.638 Y90.211 E119.20472
G0 F6000 X132.638 Y90.777
G1 F1200 X100.397 Y58.537 E120.72121
G0 F6000 X99.832 Y58.537
G1 F1200 X132.638 Y91.343 E122.26431
G0 F6000 X132.638 Y91.909
G1 F1200 X99.266 Y58.537 E123.83402
G0 F6000 X98.7 Y58.537
G1 F1200 X132.638 Y92.474 E125.43034
G0 F6000 X132.638 Y93.04
G1 F1200 X98.135 Y58.537 E127.05325
G0 F6000 X97.569 Y58.537
G1 F1200 X132.638 Y93.606 E128.70279
G0 F6000 X132.638 Y94.171
G1 F1200 X97.003 Y58.537 E130.37893
G0 F6000 X96.438 Y58.537
G1 F1200 X132.638 Y94.737 E132.08167
