;FLAVOR:Marlin
;TIME:22931
;Filament used: 15.4692m
;Layer height: 0.2
;MINX:47
;MINY:47
;MINZ:0.2
;MAXX:173
;MAXY:173
;MAXZ:29.2
;Generated with Cura_SteamEngine 5.4.0
M82 ;absolute extrusion mode
; Ender 3 Custom Start G-code
G92 E0 ; Reset Extruder
G28 ; Home all axes
M104 S175 ; Start heating up the nozzle most of the way
M190 S60 ; Start heating the bed, wait until target temperature reached
M109 S200 ; Finish heating the nozzle
G1 Z2.0 F3000 ; Move Z Axis up little to prevent scratching of Heat Bed
G1 X0.1 Y20 Z0.3 F5000.0 ; Move to start position
G1 X0.1 Y200.0 Z0.3 F1500.0 E15 ; Draw the first line
G1 X0.4 Y200.0 Z0.3 F5000.0 ; Move to side a little
G1 X0.4 Y20 Z0.3 F1500.0 E30 ; Draw the second line
G92 E0 ; Reset Extruder
G1 Z2.0 F3000 ; Move Z Axis up little to prevent scratching of Heat Bed
G1 X5 Y20 Z0.3 F5000.0 ; Move over to prevent blob squish
G92 E0
G92 E0
G1 F1500 E-6.5
;LAYER_COUNT:146
;LAYER:0
M107
G0 F6000 X50.456 Y50.013 Z0.2
;TYPE:SKIRT
G1 F1500 E0
G1 F1200 X51.192 Y49.376 E0.03237
G1 X51.924 Y48.846 E0.06243
G1 X52.821 Y48.311 E0.09717
G1 X53.699 Y47.89 E0.12956
G1 X54.612 Y47.548 E0.16198
G1 X55.549 Y47.289 E0.19432
G1 X56.516 Y47.111 E0.22702
G1 X57.655 Y47.015 E0.26504
G1 X58.312 Y47 E0.2869
G1 X161.304 Y47 E3.71242
G1 X162.184 Y47.013 E3.7417
G1 X163.156 Y47.072 E3.77408
G1 X164.119 Y47.218 E3.80648
G1 X165.066 Y47.449 E3.8389
G1 X165.954 Y47.749 E3.87007
G1 X166.846 Y48.139 E3.90245
G1 X167.729 Y48.626 E3.93599
G1 X168.48 Y49.128 E3.96604
G1 X169.295 Y49.786 E4.00088
G1 X169.993 Y50.464 E4.03324
G1 X170.629 Y51.201 E4.06562
G1 X171.199 Y51.991 E4.09802
G1 X171.661 Y52.767 E4.12806
G1 X172.115 Y53.709 E4.16284
G1 X172.444 Y54.587 E4.19402
G1 X172.713 Y55.559 E4.22757
G1 X172.89 Y56.525 E4.26023
G1 X172.985 Y57.655 E4.29795
G1 X173 Y58.33 E4.32041
G1 X172.999 Y161.4 E7.74853
G1 X172.988 Y162.163 E7.77391
G1 X172.931 Y163.136 E7.80633
G1 X172.786 Y164.099 E7.83872
G1 X172.557 Y165.045 E7.87109
G1 X172.246 Y165.969 E7.90352
G1 X171.854 Y166.86 E7.93589
G1 X171.386 Y167.712 E7.96822
G1 X170.864 Y168.493 E7.99947
G1 X170.231 Y169.278 E8.03301
G1 X169.606 Y169.929 E8.06302
G1 X168.817 Y170.617 E8.09784
G1 X168.057 Y171.167 E8.12904
G1 X167.19 Y171.684 E8.16262
G1 X166.312 Y172.106 E8.19502
G1 X165.401 Y172.448 E8.22738
G1 X164.462 Y172.709 E8.2598
G1 X163.496 Y172.887 E8.29247
G1 X162.345 Y172.985 E8.33089
G1 X161.67 Y173 E8.35335
G1 X58.564 Y172.999 E11.78266
G1 X57.831 Y172.988 E11.80705
G1 X56.859 Y172.931 E11.83943
G1 X55.896 Y172.785 E11.87183
G1 X54.95 Y172.556 E11.9042
G1 X54.026 Y172.244 E11.93664
G1 X53.136 Y171.852 E11.96898
G1 X52.313 Y171.401 E12.0002
G1 X51.474 Y170.84 E12.03376
G1 X50.77 Y170.274 E12.06381
G1 X50.017 Y169.549 E12.09858
G1 X49.38 Y168.813 E12.13095
G1 X48.85 Y168.082 E12.16098
G1 X48.314 Y167.185 E12.19574
G1 X47.892 Y166.307 E12.22814
G1 X47.55 Y165.395 E12.26053
G1 X47.29 Y164.457 E12.29291
G1 X47.112 Y163.488 E12.32568
G1 X47.014 Y162.309 E12.36502
G1 X47 Y161.658 E12.38668
G1 X47.001 Y58.525 E15.8169
G1 X47.012 Y57.825 E15.84018
G1 X47.07 Y56.852 E15.8726
G1 X47.216 Y55.889 E15.905
G1 X47.446 Y54.943 E15.93738
G1 X47.759 Y54.02 E15.9698
G1 X48.151 Y53.13 E16.00214
G1 X48.621 Y52.277 E16.03453
G1 X49.164 Y51.469 E16.06691
G1 X49.731 Y50.765 E16.09698
G1 X50.456 Y50.013 E16.13172
G0 F6000 X50.718 Y50.315
G1 F1200 X51.427 Y49.7 E16.16294
G1 X52.159 Y49.17 E16.193
G1 X52.995 Y48.671 E16.22538
G1 X53.84 Y48.264 E16.25657
G1 X54.719 Y47.933 E16.28781
G1 X55.622 Y47.682 E16.31899
G1 X56.55 Y47.51 E16.35038
G1 X57.689 Y47.414 E16.38839
G1 X58.321 Y47.4 E16.40942
G1 X161.298 Y47.4 E19.83445
G1 X162.16 Y47.412 E19.86312
G1 X163.097 Y47.468 E19.89434
G1 X164.025 Y47.607 E19.92555
G1 X164.938 Y47.828 E19.95679
G1 X165.794 Y48.116 E19.98683
G1 X166.686 Y48.506 E20.01921
G1 X167.507 Y48.959 E20.0504
G1 X168.258 Y49.461 E20.08045
G1 X169.017 Y50.073 E20.11287
G1 X169.691 Y50.726 E20.14409
G1 X170.305 Y51.435 E20.17528
G1 X170.855 Y52.196 E20.20651
G1 X171.317 Y52.972 E20.23655
G1 X171.74 Y53.849 E20.26893
G1 X172.069 Y54.727 E20.30012
G1 X172.32 Y55.632 E20.33136
G1 X172.491 Y56.559 E20.36271
G1 X172.586 Y57.689 E20.40043
G1 X172.6 Y58.33 E20.42175
G1 X172.599 Y161.395 E23.84971
G1 X172.589 Y162.14 E23.87449
G1 X172.535 Y163.077 E23.9057
G1 X172.397 Y164.006 E23.93694
G1 X172.178 Y164.918 E23.96814
G1 X171.88 Y165.808 E23.99935
G1 X171.503 Y166.668 E24.03059
G1 X171.053 Y167.49 E24.06175
G1 X170.531 Y168.271 E24.093
G1 X169.942 Y169.001 E24.1242
G1 X169.317 Y169.652 E24.15421
G1 X168.582 Y170.293 E24.18665
G1 X167.822 Y170.843 E24.21785
G1 X167.016 Y171.324 E24.24907
G1 X166.171 Y171.732 E24.28028
G1 X165.293 Y172.063 E24.31149
G1 X164.389 Y172.316 E24.34271
G1 X163.462 Y172.488 E24.37407
G1 X162.311 Y172.586 E24.41249
G1 X161.67 Y172.6 E24.43381
G1 X58.57 Y172.599 E27.86293
G1 X57.854 Y172.589 E27.88675
G1 X56.918 Y172.535 E27.91793
G1 X55.989 Y172.396 E27.94918
G1 X55.077 Y172.177 E27.98037
G1 X54.187 Y171.878 E28.0116
G1 X53.328 Y171.501 E28.0428
G1 X52.505 Y171.05 E28.07401
G1 X51.725 Y170.528 E28.10523
G1 X51.021 Y169.962 E28.13527
G1 X50.319 Y169.287 E28.16767
G1 X49.704 Y168.578 E28.19888
G1 X49.174 Y167.847 E28.22891
G1 X48.674 Y167.011 E28.26131
G1 X48.266 Y166.166 E28.29252
G1 X47.935 Y165.288 E28.32373
G1 X47.683 Y164.384 E28.35494
G1 X47.511 Y163.455 E28.38637
G1 X47.413 Y162.276 E28.42572
G1 X47.4 Y161.658 E28.44628
G1 X47.401 Y58.531 E31.87629
G1 X47.411 Y57.848 E31.89901
G1 X47.466 Y56.911 E31.93023
G1 X47.605 Y55.983 E31.96144
G1 X47.825 Y55.071 E31.99264
G1 X48.125 Y54.181 E32.02388
G1 X48.502 Y53.322 E32.05508
G1 X48.953 Y52.5 E32.08627
G1 X49.476 Y51.72 E32.1175
G1 X50.043 Y51.016 E32.14757
G1 X50.718 Y50.315 E32.17994
G0 F6000 X50.981 Y50.617
G1 F1200 X51.662 Y50.024 E32.20997
G1 X52.394 Y49.494 E32.24003
G1 X53.169 Y49.031 E32.27005
G1 X53.982 Y48.638 E32.30009
G1 X54.827 Y48.318 E32.33014
G1 X55.696 Y48.075 E32.36015
G1 X56.584 Y47.909 E32.3902
G1 X57.723 Y47.813 E32.42822
G1 X58.33 Y47.8 E32.44841
G1 X161.293 Y47.8 E35.87297
G1 X162.137 Y47.811 E35.90105
G1 X163.039 Y47.864 E35.9311
G1 X163.932 Y47.996 E35.96112
G1 X164.81 Y48.207 E35.99116
G1 X165.666 Y48.495 E36.0212
G1 X166.493 Y48.857 E36.05122
G1 X167.285 Y49.292 E36.08128
G1 X168.036 Y49.794 E36.11132
G1 X168.739 Y50.361 E36.14136
G1 X169.389 Y50.988 E36.1714
G1 X169.981 Y51.67 E36.20144
G1 X170.511 Y52.401 E36.23147
G1 X170.973 Y53.177 E36.2615
G1 X171.366 Y53.99 E36.29154
G1 X171.684 Y54.835 E36.32157
G1 X171.927 Y55.705 E36.35161
G1 X172.092 Y56.593 E36.38165
G1 X172.187 Y57.723 E36.41937
G1 X172.2 Y58.33 E36.43956
G1 X172.199 Y161.39 E39.86735
G1 X172.19 Y162.117 E39.89153
G1 X172.139 Y163.019 E39.92158
G1 X172.008 Y163.913 E39.95163
G1 X171.799 Y164.791 E39.98165
G1 X171.513 Y165.648 E40.0117
G1 X171.152 Y166.476 E40.04174
G1 X170.72 Y167.268 E40.07175
G1 X170.219 Y168.02 E40.1018
G1 X169.653 Y168.724 E40.13185
G1 X169.028 Y169.375 E40.16186
G1 X168.347 Y169.969 E40.19192
G1 X167.616 Y170.5 E40.22197
G1 X166.842 Y170.964 E40.25199
G1 X166.029 Y171.358 E40.28203
G1 X165.185 Y171.678 E40.31206
G1 X164.315 Y171.923 E40.34212
G1 X163.428 Y172.089 E40.37213
G1 X162.277 Y172.187 E40.41055
G1 X161.67 Y172.2 E40.43075
G1 X58.575 Y172.199 E43.8597
G1 X57.877 Y172.19 E43.88292
G1 X56.976 Y172.139 E43.91293
G1 X56.082 Y172.007 E43.94299
G1 X55.204 Y171.798 E43.97301
G1 X54.347 Y171.511 E44.00307
G1 X53.52 Y171.15 E44.03308
G1 X52.727 Y170.717 E44.06313
G1 X51.976 Y170.216 E44.09316
G1 X51.272 Y169.65 E44.1232
G1 X50.621 Y169.024 E44.15324
G1 X50.028 Y168.343 E44.18327
G1 X49.498 Y167.612 E44.21331
G1 X49.034 Y166.837 E44.24335
G1 X48.64 Y166.024 E44.2734
G1 X48.32 Y165.18 E44.30342
G1 X48.076 Y164.31 E44.33347
G1 X47.91 Y163.422 E44.36352
G1 X47.813 Y162.267 E44.40207
G1 X47.8 Y161.658 E44.42233
G1 X47.801 Y58.536 E47.85218
G1 X47.81 Y57.871 E47.8743
G1 X47.862 Y56.969 E47.90435
G1 X47.994 Y56.076 E47.93438
G1 X48.204 Y55.198 E47.9644
G1 X48.491 Y54.341 E47.99446
G1 X48.853 Y53.514 E48.02449
G1 X49.286 Y52.722 E48.05451
G1 X49.788 Y51.971 E48.08455
G1 X50.355 Y51.267 E48.11462
G1 X50.981 Y50.617 E48.14463
G1 F1500 E41.64463
;MESH:ZDM4MS caixa.stl
G0 F6000 X58.8 Y57.335
G0 X161.4 Y161.4
;TYPE:WALL-INNER
G1 F1500 E48.14463
G1 F1200 X161.4 Y58.6 E51.56378
G1 X58.6 Y58.6 E54.98292
G1 X58.6 Y161.4 E58.40206
G1 X161.4 Y161.4 E61.8212
G0 F6000 X161.8 Y161.8
;TYPE:WALL-OUTER
G1 F1200 X161.8 Y58.2 E65.26695
G1 X58.2 Y58.2 E68.7127
G1 X58.2 Y161.8 E72.15845
G1 X161.8 Y161.8 E75.6042
G0 F6000 X161.53 Y161.53
G0 X161.3 Y161.04
G0 X161.04 Y161.04
;TYPE:SKIN
G1 F1200 X58.96 Y161.04 E78.9994
G1 X58.96 Y58.96 E82.39459
G1 X161.04 Y58.96 E85.78979
G1 X161.04 Y161.04 E89.18498
G1 F1500 E82.68498
G0 F6000 X161.3 Y161.04
G0 X161.3 Y59.582
G0 X160.839 Y59.582
G1 F1500 E89.18498
G1 F1200 X160.417 Y59.16 E89.20483
G0 F6000 X159.852 Y59.16
G1 F1200 X160.839 Y60.147 E89.25126
G0 F6000 X160.839 Y60.713
G1 F1200 X159.286 Y59.16 E89.3243
G0 F6000 X158.72 Y59.16
G1 F1200 X160.839 Y61.279 E89.42397
G0 F6000 X160.839 Y61.844
G1 F1200 X158.155 Y59.16 E89.55022
G0 F6000 X157.589 Y59.16
G1 F1200 X160.839 Y62.41 E89.70309
G0 F6000 X160.839 Y62.976
G1 F1200 X157.023 Y59.16 E89.88258
G0 F6000 X156.457 Y59.16
G1 F1200 X160.839 Y63.542 E90.0887
G0 F6000 X160.839 Y64.107
G1 F1200 X155.892 Y59.16 E90.32139
G0 F6000 X155.326 Y59.16
G1 F1200 X160.839 Y64.673 E90.58071
G0 F6000 X160.839 Y65.239
G1 F1200 X154.76 Y59.16 E90.86664
G0 F6000 X154.195 Y59.16
G1 F1200 X160.839 Y65.804 E91.17916
G0 F6000 X160.839 Y66.37
G1 F1200 X153.629 Y59.16 E91.51829
G0 F6000 X153.063 Y59.16
G1 F1200 X160.839 Y66.936 E91.88405
G0 F6000 X160.839 Y67.501
G1 F1200 X152.498 Y59.16 E92.27639
G0 F6000 X151.932 Y59.16
G1 F1200 X160.839 Y68.067 E92.69535
G0 F6000 X160.839 Y68.633
G1 F1200 X151.366 Y59.16 E93.14093
G0 F6000 X150.801 Y59.16
G1 F1200 X160.839 Y69.198 E93.61308
G0 F6000 X160.839 Y69.764
G1 F1200 X150.235 Y59.16 E94.11186
G0 F6000 X149.669 Y59.16
G1 F1200 X160.839 Y70.33 E94.63727
G0 F6000 X160.839 Y70.895
G1 F1200 X149.104 Y59.16 E95.18924
G0 F6000 X148.538 Y59.16
G1 F1200 X160.839 Y71.461 E95.76785
G0 F6000 X160.839 Y72.027
G1 F1200 X147.972 Y59.16 E96.37307
G0 F6000 X147.407 Y59.16
G1 F1200 X160.839 Y72.592 E97.00487
G0 F6000 X160.839 Y73.158
G1 F1200 X146.841 Y59.16 E97.66329
G0 F6000 X146.275 Y59.16
G1 F1200 X160.839 Y73.724 E98.34834
G0 F6000 X160.839 Y74.29
G1 F1200 X145.709 Y59.16 E99.06001
G0 F6000 X145.144 Y59.16
G1 F1200 X160.839 Y74.855 E99.79825
G0 F6000 X160.839 Y75.421
G1 F1200 X144.578 Y59.16 E100.56312
G0 F6000 X144.012 Y59.16
G1 F1200 X160.839 Y75.987 E101.35461
G0 F6000 X160.839 Y76.552
G1 F1200 X143.447 Y59.16 E102.17268
G0 F6000 X142.881 Y59.16
G1 F1200 X160.839 Y77.118 E103.01737
G0 F6000 X160.839 Y77.684
G1 F1200 X142.315 Y59.16 E103.88868
G0 F6000 X141.75 Y59.16
G1 F1200 X160.839 Y78.249 E104.78657
G0 F6000 X160.839 Y78.815
G1 F1200 X141.184 Y59.16 E105.71108
G0 F6000 X140.618 Y59.16
G1 F1200 X160.839 Y79.381 E106.66221
G0 F6000 X160.839 Y79.946
G1 F1200 X140.053 Y59.16 E107.63992
G0 F6000 X139.487 Y59.16
G1 F1200 X160.839 Y80.512 E108.64425
G0 F6000 X160.839 Y81.078
G1 F1200 X138.921 Y59.16 E109.67521
G0 F6000 X138.356 Y59.16
G1 F1200 X160.839 Y81.643 E110.73274
G0 F6000 X160.839 Y82.209
G1 F1200 X137.79 Y59.16 E111.81689
G0 F6000 X137.224 Y59.16
G1 F1200 X160.839 Y82.775 E112.92767
G0 F6000 X160.839 Y83.341
G1 F1200 X136.658 Y59.16 E114.06507
G0 F6000 X136.093 Y59.16
G1 F1200 X160.839 Y83.906 E115.22905
G0 F6000 X160.839 Y84.472
G1 F1200 X135.527 Y59.16 E116.41965
G0 F6000 X134.961 Y59.16
G1 F1200 X160.839 Y85.038 E117.63687
G0 F6000 X160.839 Y85.603
G1 F1200 X134.396 Y59.16 E118.88067
G0 F6000 X133.83 Y59.16
G1 F1200 X160.839 Y86.169 E120.15109
G0 F6000 X160.839 Y86.735
G1 F1200 X133.264 Y59.16 E121.44813
G0 F6000 X132.699 Y59.16
G1 F1200 X160.839 Y87.3 E122.77175
G0 F6000 X160.839 Y87.866
G1 F1200 X132.133 Y59.16 E124.12199
G0 F6000 X131.567 Y59.16
G1 F1200 X160.839 Y88.432 E125.49886
G0 F6000 X160.839 Y88.997
G1 F1200 X131.002 Y59.16 E126.9023
G0 F6000 X130.436 Y59.16
G1 F1200 X160.839 Y89.563 E128.33236
G0 F6000 X160.839 Y90.129
G1 F1200 X129.87 Y59.16 E129.78905
G0 F6000 X129.305 Y59.16
G1 F1200 X160.839 Y90.694 E131.27231
G0 F6000 X160.839 Y91.26
G1 F1200 X128.739 Y59.16 E132.7822
G0 F6000 X128.173 Y59.16
G1 F1200 X160.839 Y91.826 E134.31871
G0 F6000 X160.839 Y92.391
G1 F1200 X127.608 Y59.16 E135.88179
G0 F6000 X127.042 Y59.16
G1 F1200 X160.839 Y92.957 E137.4715
G0 F6000 X160.839 Y93.523
G1 F1200 X126.476 Y59.16 E139.08783
G0 F6000 X125.91 Y59.16
G1 F1200 X160.839 Y94.089 E140.73078
G0 F6000 X160.839 Y94.654
G1 F1200 X125.345 Y59.16 E142.40031
G0 F6000 X124.779 Y59.16
G1 F1200 X160.839 Y95.22 E144.09646
G0 F6000 X160.839 Y95.786
G1 F1200 X124.213 Y59.16 E145.81924
G0 F6000 X123.648 Y59.16
G1 F1200 X160.839 Y96.351 E147.56859
G0 F6000 X160.839 Y96.917
G1 F1200 X123.082 Y59.16 E149.34456
G0 F6000 X122.516 Y59.16
G1 F1200 X160.839 Y97.483 E151.14716
G0 F6000 X160.839 Y98.048
G1 F1200 X121.951 Y59.16 E152.97633
G0 F6000 X121.385 Y59.16
G1 F1200 X160.839 Y98.614 E154.83212
G0 F6000 X160.839 Y99.18
G1 F1200 X120.819 Y59.16 E156.71454
G0 F6000 X120.254 Y59.16
G1 F1200 X160.839 Y99.745 E158.62354
G0 F6000 X160.839 Y100.311
G1 F1200 X119.688 Y59.16 E160.55915
G0 F6000 X119.122 Y59.16
G1 F1200 X160.839 Y100.877 E162.52139
G0 F6000 X160.839 Y101.442
G1 F1200 X118.557 Y59.16 E164.51021
G0 F6000 X117.991 Y59.16
G1 F1200 X160.839 Y102.008 E166.52565
G0 F6000 X160.839 Y102.574
G1 F1200 X117.425 Y59.16 E168.56771
G0 F6000 X116.86 Y59.16
G1 F1200 X160.839 Y103.14 E170.63637
G0 F6000 X160.839 Y103.705
G1 F1200 X116.294 Y59.16 E172.73163
G0 F6000 X115.728 Y59.16
G1 F1200 X160.839 Y104.271 E174.85351
G0 F6000 X160.839 Y104.837
G1 F1200 X115.162 Y59.16 E177.00202
G0 F6000 X114.597 Y59.16
G1 F1200 X160.839 Y105.402 E179.1771
G0 F6000 X160.839 Y105.968
G1 F1200 X114.031 Y59.16 E181.37881
G0 F6000 X113.465 Y59.16
G1 F1200 X160.839 Y106.534 E183.60713
G0 F6000 X160.839 Y107.099
G1 F1200 X112.9 Y59.16 E185.86204
G0 F6000 X112.334 Y59.16
G1 F1200 X160.839 Y107.665 E188.14356
G0 F6000 X160.839 Y108.231
G1 F1200 X111.768 Y59.16 E190.45171
G0 F6000 X111.203 Y59.16
G1 F1200 X160.839 Y108.796 E192.78644
G0 F6000 X160.839 Y109.362
G1 F1200 X110.637 Y59.16 E195.14779
G0 F6000 X110.071 Y59.16
G1 F1200 X160.839 Y109.928 E197.53576
G0 F6000 X160.839 Y110.493
G1 F1200 X109.506 Y59.16 E199.9503
G0 F6000 X108.94 Y59.16
G1 F1200 X160.839 Y111.059 E202.39147
G0 F6000 X160.839 Y111.625
G1 F1200 X108.374 Y59.16 E204.85927
G0 F6000 X107.809 Y59.16
G1 F1200 X160.839 Y112.19 E207.35364
G0 F6000 X160.839 Y112.756
G1 F1200 X107.243 Y59.16 E209.87463
G0 F6000 X106.677 Y59.16
G1 F1200 X160.839 Y113.322 E212.42224
G0 F6000 X160.839 Y113.888
G1 F1200 X106.111 Y59.16 E214.99648
G0 F6000 X105.546 Y59.16
G1 F1200 X160.839 Y114.453 E217.59729
G0 F6000 X160.839 Y115.019
G1 F1200 X104.98 Y59.16 E220.22473
G0 F6000 X104.414 Y59.16
G1 F1200 X160.839 Y115.585 E222.87879
G0 F6000 X160.839 Y116.15
G1 F1200 X103.849 Y59.16 E225.55942
G0 F6000 X103.283 Y59.16
G1 F1200 X160.839 Y116.716 E228.26668
G0 F6000 X160.839 Y117.282
G1 F1200 X102.717 Y59.16 E231.00056
G0 F6000 X102.152 Y59.16
G1 F1200 X160.839 Y117.847 E233.76102
G0 F6000 X160.839 Y118.413
G1 F1200 X101.586 Y59.16 E236.5481
G0 F6000 X101.02 Y59.16
G1 F1200 X160.839 Y118.979 E239.3618
G0 F6000 X160.839 Y119.544
G1 F1200 X100.455 Y59.16 E242.20208
G0 F6000 X99.889 Y59.16
G1 F1200 X160.839 Y120.11 E245.06898
G0 F6000 X160.839 Y120.676
G1 F1200 X99.323 Y59.16 E247.9625
G0 F6000 X98.758 Y59.16
G1 F1200 X160.839 Y121.241 E250.8826
G0 F6000 X160.839 Y121.807
G1 F1200 X98.192 Y59.16 E253.82932
G0 F6000 X97.626 Y59.16
G1 F1200 X160.839 Y122.373 E256.80267
G0 F6000 X160.839 Y122.938
G1 F1200 X97.061 Y59.16 E259.80259
G0 F6000 X96.495 Y59.16
G1 F1200 X160.839 Y123.504 E262.82914
G0 F6000 X160.839 Y124.07
G1 F1200 X95.929 Y59.16 E265.8823
G0 F6000 X95.363 Y59.16
G1 F1200 X160.839 Y124.636 E268.96209
G0 F6000 X160.839 Y125.201
G1 F1200 X94.798 Y59.16 E272.06846
G0 F6000 X94.232 Y59.16
G1 F1200 X160.839 Y125.767 E275.20145
