;FLAVOR:Marlin
;TIME:7900
;Filament used: 6.54531m
;Layer height: 0.2
;MINX:74.3
;MINY:49.4
;MINZ:0.2
;MAXX:145.7
;MAXY:170.6
;MAXZ:12.4
;Generated with Cura_SteamEngine 5.4.0
M82 ;absolute extrusion mode
; Ender 3 Custom Start G-code
G92 E0 ; Reset Extruder
G28 ; Home all axes
M104 S175 ; Start heating up the nozzle most of the way
M190 S60 ; Start heating the bed, wait until target temperature reached
M109 S200 ; Finish heating the nozzle
G1 Z2.0 F3000 ; Move Z Axis up little to prevent scratching of Heat Bed
G1 X0.1 Y20 Z0.3 F5000.0 ; Move to start position
G1 X0.1 Y200.0 Z0.3 F1500.0 E15 ; Draw the first line
G1 X0.4 Y200.0 Z0.3 F5000.0 ; Move to side a little
G1 X0.4 Y20 Z0.3 F1500.0 E30 ; Draw the second line
G92 E0 ; Reset Extruder
G1 Z2.0 F3000 ; Move Z Axis up little to prevent scratching of Heat Bed
G1 X5 Y20 Z0.3 F5000.0 ; Move over to prevent blob squish
G92 E0
G92 E0
G1 F1500 E-6.5
;LAYER_COUNT:62
;LAYER:0
M107
G0 F6000 X76.464 Y53.869 Z0.2
;TYPE:SKIRT
G1 F1500 E0
G1 F1200 X77.031 Y53.165 E0.03007
G1 X77.756 Y52.413 E0.06481
G1 X78.492 Y51.776 E0.09718
G1 X79.224 Y51.246 E0.12724
G1 X80.121 Y50.711 E0.16198
G1 X80.999 Y50.29 E0.19436
G1 X81.912 Y49.948 E0.22679
G1 X82.849 Y49.689 E0.25912
G1 X83.816 Y49.511 E0.29183
G1 X84.955 Y49.415 E0.32985
G1 X85.612 Y49.4 E0.3517
G1 X134.004 Y49.4 E1.96123
G1 X134.884 Y49.413 E1.9905
G1 X135.856 Y49.472 E2.02289
G1 X136.819 Y49.618 E2.05528
G1 X137.766 Y49.849 E2.0877
G1 X138.654 Y50.149 E2.11888
G1 X139.546 Y50.539 E2.15126
G1 X140.429 Y51.026 E2.1848
G1 X141.18 Y51.528 E2.21484
G1 X141.995 Y52.186 E2.24968
G1 X142.693 Y52.864 E2.28205
G1 X143.329 Y53.601 E2.31443
G1 X143.899 Y54.391 E2.34683
G1 X144.361 Y55.167 E2.37686
G1 X144.815 Y56.109 E2.41164
G1 X145.144 Y56.987 E2.44283
G1 X145.413 Y57.959 E2.47637
G1 X145.59 Y58.925 E2.50904
G1 X145.685 Y60.055 E2.54675
G1 X145.7 Y60.73 E2.56921
G1 X145.699 Y159 E5.83768
G1 X145.688 Y159.763 E5.86306
G1 X145.631 Y160.736 E5.89548
G1 X145.486 Y161.699 E5.92787
G1 X145.257 Y162.645 E5.96024
G1 X144.946 Y163.569 E5.99267
G1 X144.554 Y164.46 E6.02505
G1 X144.086 Y165.312 E6.05738
G1 X143.564 Y166.093 E6.08862
G1 X142.931 Y166.878 E6.12216
G1 X142.306 Y167.529 E6.15218
G1 X141.517 Y168.217 E6.187
G1 X140.757 Y168.767 E6.2182
G1 X139.89 Y169.284 E6.25177
G1 X139.012 Y169.706 E6.28417
G1 X138.101 Y170.048 E6.31654
G1 X137.162 Y170.309 E6.34895
G1 X136.196 Y170.487 E6.38162
G1 X135.045 Y170.585 E6.42004
G1 X134.37 Y170.6 E6.4425
G1 X85.864 Y170.599 E8.05582
G1 X85.131 Y170.588 E8.0802
G1 X84.159 Y170.531 E8.11258
G1 X83.196 Y170.385 E8.14498
G1 X82.25 Y170.156 E8.17735
G1 X81.326 Y169.844 E8.20979
G1 X80.436 Y169.452 E8.24213
G1 X79.613 Y169.001 E8.27335
G1 X78.774 Y168.44 E8.30692
G1 X78.07 Y167.874 E8.33696
G1 X77.317 Y167.149 E8.37173
G1 X76.68 Y166.413 E8.4041
G1 X76.15 Y165.682 E8.43413
G1 X75.614 Y164.785 E8.46889
G1 X75.192 Y163.907 E8.50129
G1 X74.85 Y162.995 E8.53369
G1 X74.59 Y162.057 E8.56606
G1 X74.412 Y161.088 E8.59883
G1 X74.314 Y159.909 E8.63818
G1 X74.3 Y159.258 E8.65983
G1 X74.301 Y60.925 E11.9304
G1 X74.312 Y60.225 E11.95369
G1 X74.37 Y59.252 E11.98611
G1 X74.516 Y58.289 E12.0185
G1 X74.746 Y57.343 E12.05088
G1 X75.059 Y56.42 E12.0833
G1 X75.451 Y55.53 E12.11565
G1 X75.921 Y54.677 E12.14804
G1 X76.464 Y53.869 E12.18042
G0 F6000 X76.776 Y54.12
G1 F1200 X77.343 Y53.416 E12.21048
G1 X78.018 Y52.715 E12.24285
G1 X78.727 Y52.1 E12.27407
G1 X79.459 Y51.57 E12.30412
G1 X80.295 Y51.071 E12.33651
G1 X81.14 Y50.664 E12.3677
G1 X82.019 Y50.333 E12.39894
G1 X82.922 Y50.082 E12.43011
G1 X83.85 Y49.91 E12.4615
G1 X84.989 Y49.814 E12.49952
G1 X85.621 Y49.8 E12.52055
G1 X133.998 Y49.8 E14.12957
G1 X134.86 Y49.812 E14.15825
G1 X135.797 Y49.868 E14.18947
G1 X136.725 Y50.007 E14.22068
G1 X137.638 Y50.228 E14.25192
G1 X138.494 Y50.516 E14.28196
G1 X139.386 Y50.906 E14.31434
G1 X140.207 Y51.359 E14.34553
G1 X140.958 Y51.861 E14.37557
G1 X141.717 Y52.473 E14.408
G1 X142.391 Y53.126 E14.43921
G1 X143.005 Y53.835 E14.47041
G1 X143.555 Y54.596 E14.50164
G1 X144.017 Y55.372 E14.53167
G1 X144.44 Y56.249 E14.56406
G1 X144.769 Y57.127 E14.59524
G1 X145.02 Y58.032 E14.62648
G1 X145.191 Y58.959 E14.65783
G1 X145.286 Y60.089 E14.69555
G1 X145.3 Y60.73 E14.71688
G1 X145.299 Y158.995 E17.98518
G1 X145.289 Y159.74 E18.00996
G1 X145.235 Y160.677 E18.04118
G1 X145.097 Y161.606 E18.07242
G1 X144.878 Y162.518 E18.10361
G1 X144.58 Y163.408 E18.13483
G1 X144.203 Y164.268 E18.16606
G1 X143.753 Y165.09 E18.19723
G1 X143.231 Y165.871 E18.22847
G1 X142.642 Y166.601 E18.25967
G1 X142.017 Y167.252 E18.28969
G1 X141.282 Y167.893 E18.32212
G1 X140.522 Y168.443 E18.35333
G1 X139.716 Y168.924 E18.38455
G1 X138.871 Y169.332 E18.41575
G1 X137.993 Y169.663 E18.44696
G1 X137.089 Y169.916 E18.47819
G1 X136.162 Y170.088 E18.50954
G1 X135.011 Y170.186 E18.54797
G1 X134.37 Y170.2 E18.56929
G1 X85.87 Y170.199 E20.18241
G1 X85.154 Y170.189 E20.20622
G1 X84.218 Y170.135 E20.23741
G1 X83.289 Y169.996 E20.26865
G1 X82.377 Y169.777 E20.29984
G1 X81.487 Y169.478 E20.33107
G1 X80.628 Y169.101 E20.36227
G1 X79.805 Y168.65 E20.39349
G1 X79.025 Y168.128 E20.4247
G1 X78.321 Y167.562 E20.45475
G1 X77.619 Y166.887 E20.48714
G1 X77.004 Y166.178 E20.51836
G1 X76.474 Y165.447 E20.54839
G1 X75.974 Y164.611 E20.58079
G1 X75.566 Y163.766 E20.61199
G1 X75.235 Y162.888 E20.6432
G1 X74.983 Y161.984 E20.67442
G1 X74.811 Y161.055 E20.70584
G1 X74.713 Y159.876 E20.74519
G1 X74.7 Y159.258 E20.76575
G1 X74.701 Y60.931 E24.03612
G1 X74.711 Y60.248 E24.05884
G1 X74.766 Y59.311 E24.09006
G1 X74.905 Y58.383 E24.12127
G1 X75.125 Y57.471 E24.15247
G1 X75.425 Y56.581 E24.18371
G1 X75.802 Y55.722 E24.21491
G1 X76.253 Y54.9 E24.24609
G1 X76.776 Y54.12 E24.27733
G0 F6000 X77.088 Y54.371
G1 F1200 X77.655 Y53.667 E24.30739
G1 X78.281 Y53.017 E24.33741
G1 X78.962 Y52.424 E24.36744
G1 X79.694 Y51.894 E24.3975
G1 X80.469 Y51.431 E24.42753
G1 X81.282 Y51.038 E24.45756
G1 X82.127 Y50.718 E24.48761
G1 X82.996 Y50.475 E24.51762
G1 X83.884 Y50.309 E24.54767
G1 X85.023 Y50.213 E24.58569
G1 X85.63 Y50.2 E24.60588
G1 X133.993 Y50.2 E26.21444
G1 X134.837 Y50.211 E26.24252
G1 X135.739 Y50.264 E26.27257
G1 X136.632 Y50.396 E26.30259
G1 X137.51 Y50.607 E26.33263
G1 X138.366 Y50.895 E26.36266
G1 X139.193 Y51.257 E26.39269
G1 X139.985 Y51.692 E26.42274
G1 X140.736 Y52.194 E26.45279
G1 X141.439 Y52.761 E26.48283
G1 X142.089 Y53.388 E26.51287
G1 X142.681 Y54.07 E26.5429
G1 X143.211 Y54.801 E26.57294
G1 X143.673 Y55.577 E26.60297
G1 X144.066 Y56.39 E26.63301
G1 X144.384 Y57.235 E26.66304
G1 X144.627 Y58.105 E26.69308
G1 X144.792 Y58.993 E26.72312
G1 X144.887 Y60.123 E26.76084
G1 X144.9 Y60.73 E26.78103
G1 X144.899 Y158.99 E30.04917
G1 X144.89 Y159.717 E30.07335
G1 X144.839 Y160.619 E30.1034
G1 X144.708 Y161.513 E30.13345
G1 X144.499 Y162.391 E30.16347
G1 X144.213 Y163.248 E30.19352
G1 X143.852 Y164.076 E30.22356
G1 X143.42 Y164.868 E30.25357
G1 X142.919 Y165.62 E30.28362
G1 X142.353 Y166.324 E30.31367
G1 X141.728 Y166.975 E30.34368
G1 X141.047 Y167.569 E30.37374
G1 X140.316 Y168.1 E30.40379
G1 X139.542 Y168.564 E30.43381
G1 X138.729 Y168.958 E30.46385
G1 X137.885 Y169.278 E30.49388
G1 X137.015 Y169.523 E30.52394
G1 X136.128 Y169.689 E30.55395
G1 X134.977 Y169.787 E30.59237
G1 X134.37 Y169.8 E30.61257
G1 X85.875 Y169.799 E32.22552
G1 X85.177 Y169.79 E32.24873
G1 X84.276 Y169.739 E32.27875
G1 X83.382 Y169.607 E32.30881
G1 X82.504 Y169.398 E32.33882
G1 X81.647 Y169.111 E32.36888
G1 X80.82 Y168.75 E32.3989
G1 X80.027 Y168.317 E32.42895
G1 X79.276 Y167.816 E32.45897
G1 X78.572 Y167.25 E32.48902
G1 X77.921 Y166.624 E32.51906
G1 X77.328 Y165.943 E32.54909
G1 X76.798 Y165.212 E32.57912
G1 X76.334 Y164.437 E32.60917
G1 X75.94 Y163.624 E32.63921
G1 X75.62 Y162.78 E32.66924
G1 X75.376 Y161.91 E32.69929
G1 X75.21 Y161.022 E32.72934
G1 X75.113 Y159.867 E32.76789
G1 X75.1 Y159.258 E32.78815
G1 X75.101 Y60.936 E36.05835
G1 X75.11 Y60.271 E36.08047
G1 X75.162 Y59.369 E36.11052
G1 X75.294 Y58.476 E36.14054
G1 X75.504 Y57.598 E36.17057
G1 X75.791 Y56.741 E36.20063
G1 X76.153 Y55.914 E36.23066
G1 X76.586 Y55.122 E36.26068
G1 X77.088 Y54.371 E36.29072
G1 F1500 E29.79072
;MESH:ZDM4MS - retangulo.stl
G0 F6000 X84.635 Y60.82
G0 X134.1 Y159
;TYPE:WALL-INNER
G1 F1500 E36.29072
G1 F1200 X134.1 Y61 E39.55022
G1 X85.9 Y61 E41.15335
G1 X85.9 Y159 E44.41285
G1 X134.1 Y159 E46.01599
G0 F6000 X134.5 Y159.4
;TYPE:WALL-OUTER
G1 F1200 X134.5 Y60.6 E49.30209
G1 X85.5 Y60.6 E50.93183
G1 X85.5 Y159.4 E54.21793
G1 X134.5 Y159.4 E55.84768
G0 F6000 X134.23 Y159.13
G0 X134 Y158.64
G0 X133.74 Y158.64
;TYPE:SKIN
G1 F1200 X86.26 Y158.64 E57.42687
G1 X86.26 Y61.36 E60.66242
G1 X133.74 Y61.36 E62.24161
G1 X133.74 Y158.64 E65.47716
G1 F1500 E58.97716
G0 F6000 X134 Y158.64
G0 X86.597 Y158.9
G0 X86.597 Y158.439
G1 F1500 E65.47716
G1 F1200 X86.459 Y158.301 E65.48365
G0 F6000 X86.459 Y157.735
G1 F1200 X87.162 Y158.439 E65.51674
G0 F6000 X87.728 Y158.439
G1 F1200 X86.459 Y157.17 E65.57643
G0 F6000 X86.459 Y156.604
G1 F1200 X88.294 Y158.439 E65.66274
G0 F6000 X88.859 Y158.439
G1 F1200 X86.459 Y156.038 E65.77565
G0 F6000 X86.459 Y155.472
G1 F1200 X89.425 Y158.439 E65.91519
G0 F6000 X89.991 Y158.439
G1 F1200 X86.459 Y154.907 E66.08132
G0 F6000 X86.459 Y154.341
G1 F1200 X90.557 Y158.439 E66.27408
G0 F6000 X91.122 Y158.439
G1 F1200 X86.459 Y153.775 E66.49344
G0 F6000 X86.459 Y153.21
G1 F1200 X91.688 Y158.439 E66.73939
G0 F6000 X92.254 Y158.439
G1 F1200 X86.459 Y152.644 E67.01197
G0 F6000 X86.459 Y152.078
G1 F1200 X92.819 Y158.439 E67.31115
G0 F6000 X93.385 Y158.439
G1 F1200 X86.459 Y151.513 E67.63693
G0 F6000 X86.459 Y150.947
G1 F1200 X93.951 Y158.439 E67.98933
G0 F6000 X94.516 Y158.439
G1 F1200 X86.459 Y150.381 E68.36833
G0 F6000 X86.459 Y149.816
G1 F1200 X95.082 Y158.439 E68.77393
G0 F6000 X95.648 Y158.439
G1 F1200 X86.459 Y149.25 E69.20615
G0 F6000 X86.459 Y148.684
G1 F1200 X96.213 Y158.439 E69.66497
G0 F6000 X96.779 Y158.439
G1 F1200 X86.459 Y148.119 E70.15039
G0 F6000 X86.459 Y147.553
G1 F1200 X97.345 Y158.439 E70.66244
G0 F6000 X97.91 Y158.439
G1 F1200 X86.459 Y146.987 E71.20108
G0 F6000 X86.459 Y146.422
G1 F1200 X98.476 Y158.439 E71.76632
G0 F6000 X99.042 Y158.439
G1 F1200 X86.459 Y145.856 E72.35819
G0 F6000 X86.459 Y145.29
G1 F1200 X99.608 Y158.439 E72.97668
G0 F6000 X100.173 Y158.439
G1 F1200 X86.459 Y144.724 E73.62177
G0 F6000 X86.459 Y144.159
G1 F1200 X100.739 Y158.439 E74.29345
G0 F6000 X101.305 Y158.439
G1 F1200 X86.459 Y143.593 E74.99176
G0 F6000 X86.459 Y143.027
G1 F1200 X101.87 Y158.439 E75.71667
G0 F6000 X102.436 Y158.439
G1 F1200 X86.459 Y142.462 E76.46818
G0 F6000 X86.459 Y141.896
G1 F1200 X103.002 Y158.439 E77.24631
G0 F6000 X103.567 Y158.439
G1 F1200 X86.459 Y141.33 E78.05105
G0 F6000 X86.459 Y140.765
G1 F1200 X104.133 Y158.439 E78.88238
G0 F6000 X104.699 Y158.439
G1 F1200 X86.459 Y140.199 E79.74033
G0 F6000 X86.459 Y139.633
G1 F1200 X105.264 Y158.439 E80.62488
G0 F6000 X105.83 Y158.439
G1 F1200 X86.459 Y139.068 E81.53604
G0 F6000 X86.459 Y138.502
G1 F1200 X106.396 Y158.439 E82.47381
G0 F6000 X106.961 Y158.439
G1 F1200 X86.459 Y137.936 E83.43819
G0 F6000 X86.459 Y137.371
G1 F1200 X107.527 Y158.439 E84.42916
G0 F6000 X108.093 Y158.439
G1 F1200 X86.459 Y136.805 E85.44676
G0 F6000 X86.459 Y136.239
G1 F1200 X108.658 Y158.439 E86.49095
G0 F6000 X109.224 Y158.439
G1 F1200 X86.459 Y135.673 E87.56177
G0 F6000 X86.459 Y135.108
G1 F1200 X109.79 Y158.439 E88.65919
G0 F6000 X110.356 Y158.439
G1 F1200 X86.459 Y134.542 E89.78323
G0 F6000 X86.459 Y133.976
G1 F1200 X110.921 Y158.439 E90.93387
G0 F6000 X111.487 Y158.439
G1 F1200 X86.459 Y133.411 E92.11111
G0 F6000 X86.459 Y132.845
G1 F1200 X112.053 Y158.439 E93.31498
G0 F6000 X112.618 Y158.439
G1 F1200 X86.459 Y132.279 E94.54544
G0 F6000 X86.459 Y131.714
G1 F1200 X113.184 Y158.439 E95.8025
G0 F6000 X113.75 Y158.439
G1 F1200 X86.459 Y131.148 E97.08619
G0 F6000 X86.459 Y130.582
G1 F1200 X114.315 Y158.439 E98.39647
G0 F6000 X114.881 Y158.439
G1 F1200 X86.459 Y130.017 E99.73336
G0 F6000 X86.459 Y129.451
G1 F1200 X115.447 Y158.439 E101.09686
G0 F6000 X116.012 Y158.439
G1 F1200 X86.459 Y128.885 E102.48697
G0 F6000 X86.459 Y128.32
G1 F1200 X116.578 Y158.439 E103.90367
G0 F6000 X117.144 Y158.439
G1 F1200 X86.459 Y127.754 E105.347
G0 F6000 X86.459 Y127.188
G1 F1200 X117.709 Y158.439 E106.81693
G0 F6000 X118.275 Y158.439
G1 F1200 X86.459 Y126.623 E108.31346
G0 F6000 X86.459 Y126.057
G1 F1200 X118.841 Y158.439 E109.83661
G0 F6000 X119.407 Y158.439
G1 F1200 X86.459 Y125.491 E111.38638
G0 F6000 X86.459 Y124.925
G1 F1200 X119.972 Y158.439 E112.96275
G0 F6000 X120.538 Y158.439
G1 F1200 X86.459 Y124.36 E114.56572
G0 F6000 X86.459 Y123.794
G1 F1200 X121.104 Y158.439 E116.19532
G0 F6000 X121.669 Y158.439
G1 F1200 X86.459 Y123.228 E117.85151
G0 F6000 X86.459 Y122.663
G1 F1200 X122.235 Y158.439 E119.53431
G0 F6000 X122.801 Y158.439
G1 F1200 X86.459 Y122.097 E121.24372
G0 F6000 X86.459 Y121.531
G1 F1200 X123.366 Y158.439 E122.97974
G0 F6000 X123.932 Y158.439
G1 F1200 X86.459 Y120.966 E124.74235
G0 F6000 X86.459 Y120.4
G1 F1200 X124.498 Y158.439 E126.53159
G0 F6000 X125.063 Y158.439
G1 F1200 X86.459 Y119.834 E128.34743
G0 F6000 X86.459 Y119.269
G1 F1200 X125.629 Y158.439 E130.18986
G0 F6000 X126.195 Y158.439
G1 F1200 X86.459 Y118.703 E132.05892
G0 F6000 X86.459 Y118.137
G1 F1200 X126.76 Y158.439 E133.95458
G0 F6000 X127.326 Y158.439
G1 F1200 X86.459 Y117.572 E135.87684
G0 F6000 X86.459 Y117.006
G1 F1200 X127.892 Y158.439 E137.82572
G0 F6000 X128.457 Y158.439
G1 F1200 X86.459 Y116.44 E139.8012
G0 F6000 X86.459 Y115.875
G1 F1200 X129.023 Y158.439 E141.80328
G0 F6000 X129.589 Y158.439
G1 F1200 X86.459 Y115.309 E143.83199
G0 F6000 X86.459 Y114.743
G1 F1200 X130.155 Y158.439 E145.88731
G0 F6000 X130.72 Y158.439
G1 F1200 X86.459 Y114.177 E147.96924
G0 F6000 X86.459 Y113.612
G1 F1200 X131.286 Y158.439 E150.07776
G0 F6000 X131.852 Y158.439
G1 F1200 X86.459 Y113.046 E152.21291
G0 F6000 X86.459 Y112.48
G1 F1200 X132.417 Y158.439 E154.37466
G0 F6000 X132.983 Y158.439
G1 F1200 X86.459 Y111.915 E156.563
G0 F6000 X86.459 Y111.349
G1 F1200 X133.54 Y158.43 E158.77755
G0 F6000 X133.54 Y157.865
G1 F1200 X86.459 Y110.783 E160.99212
G0 F6000 X86.459 Y110.218
G1 F1200 X133.54 Y157.299 E163.20666
G0 F6000 X133.54 Y156.733
G1 F1200 X86.458 Y109.651 E165.42126
G0 F6000 X86.458 Y109.086
G1 F1200 X133.54 Y156.168 E167.63585
G0 F6000 X133.54 Y155.602
G1 F1200 X86.458 Y108.52 E169.85044
G0 F6000 X86.458 Y107.954
G1 F1200 X133.54 Y155.036 E172.06504
G0 F6000 X133.54 Y154.471
G1 F1200 X86.458 Y107.389 E174.27963
G0 F6000 X86.458 Y106.823
G1 F1200 X133.54 Y153.905 E176.49422
G0 F6000 X133.54 Y153.339
G1 F1200 X86.458 Y106.257 E178.70881
G0 F6000 X86.458 Y105.691
G1 F1200 X133.54 Y152.773 E180.92341
G0 F6000 X133.54 Y152.208
G1 F1200 X86.458 Y105.126 E183.138
G0 F6000 X86.458 Y104.56
G1 F1200 X133.54 Y151.642 E185.35259
G0 F6000 X133.54 Y151.076
G1 F1200 X86.458 Y103.994 E187.56719
G0 F6000 X86.458 Y103.429
G1 F1200 X133.54 Y150.511 E189.78178
G0 F6000 X133.54 Y149.945
G1 F1200 X86.458 Y102.863 E191.99637
G0 F6000 X86.458 Y102.297
G1 F1200 X133.54 Y149.379 E194.21096
G0 F6000 X133.54 Y148.814
G1 F1200 X86.458 Y101.732 E196.42556
G0 F6000 X86.458 Y101.166
G1 F1200 X133.54 Y148.248 E198.64015
G0 F6000 X133.54 Y147.682
G1 F1200 X86.458 Y100.6 E200.85474
G0 F6000 X86.458 Y100.035
G1 F1200 X133.54 Y147.117 E203.06934
G0 F6000 X133.54 Y146.551
G1 F1200 X86.458 Y99.469 E205.28393
G0 F6000 X86.458 Y98.903
G1 F1200 X133.54 Y145.985 E207.49852
G0 F6000 X133.54 Y145.42
G1 F1200 X86.458 Y98.338 E209.71312
G0 F6000 X86.458 Y97.772
G1 F1200 X133.54 Y144.854 E211.92771
G0 F6000 X133.54 Y144.288
G1 F1200 X86.458 Y97.206 E214.1423
G0 F6000 X86.458 Y96.64
G1 F1200 X133.54 Y143.722 E216.35689
G0 F6000 X133.54 Y143.157
G1 F1200 X86.458 Y96.075 E218.57149
G0 F6000 X86.458 Y95.509
G1 F1200 X133.54 Y142.591 E220.78608
G0 F6000 X133.54 Y142.025
G1 F1200 X86.458 Y94.943 E223.00067
G0 F6000 X86.458 Y94.378
G1 F1200 X133.54 Y141.46 E225.21527
G0 F6000 X133.54 Y140.894
G1 F1200 X86.458 Y93.812 E227.42986
G0 F6000 X86.458 Y93.246
G1 F1200 X133.54 Y140.328 E229.64445
