;FLAVOR:Marlin
;TIME:4216
;Filament used: 3.43255m
;Layer height: 0.2
;MINX:74.3
;MINY:74.3
;MINZ:0.2
;MAXX:145.7
;MAXY:145.7
;MAXZ:12.4
;Generated with Cura_SteamEngine 5.4.0
M82 ;absolute extrusion mode
; Ender 3 Custom Start G-code
G92 E0 ; Reset Extruder
G28 ; Home all axes
M104 S175 ; Start heating up the nozzle most of the way
M190 S60 ; Start heating the bed, wait until target temperature reached
M109 S200 ; Finish heating the nozzle
G1 Z2.0 F3000 ; Move Z Axis up little to prevent scratching of Heat Bed
G1 X0.1 Y20 Z0.3 F5000.0 ; Move to start position
G1 X0.1 Y200.0 Z0.3 F1500.0 E15 ; Draw the first line
G1 X0.4 Y200.0 Z0.3 F5000.0 ; Move to side a little
G1 X0.4 Y20 Z0.3 F1500.0 E30 ; Draw the second line
G92 E0 ; Reset Extruder
G1 Z2.0 F3000 ; Move Z Axis up little to prevent scratching of Heat Bed
G1 X5 Y20 Z0.3 F5000.0 ; Move over to prevent blob squish
G92 E0
G92 E0
G1 F1500 E-6.5
;LAYER_COUNT:62
;LAYER:0
M107
G0 F6000 X77.756 Y77.313 Z0.2
;TYPE:SKIRT
G1 F1500 E0
G1 F1200 X78.492 Y76.676 E0.03237
G1 X79.224 Y76.146 E0.06243
G1 X80.121 Y75.611 E0.09717
G1 X80.999 Y75.19 E0.12956
G1 X81.912 Y74.848 E0.16198
G1 X82.849 Y74.589 E0.19432
G1 X83.816 Y74.411 E0.22702
G1 X84.955 Y74.315 E0.26504
G1 X85.612 Y74.3 E0.2869
G1 X134.004 Y74.3 E1.89642
G1 X134.884 Y74.313 E1.92569
G1 X135.856 Y74.372 E1.95808
G1 X136.819 Y74.518 E1.99048
G1 X137.766 Y74.749 E2.0229
G1 X138.654 Y75.049 E2.05407
G1 X139.546 Y75.439 E2.08645
G1 X140.429 Y75.926 E2.11999
G1 X141.18 Y76.428 E2.15004
G1 X141.995 Y77.086 E2.18487
G1 X142.693 Y77.764 E2.21724
G1 X143.329 Y78.501 E2.24962
G1 X143.899 Y79.291 E2.28202
G1 X144.361 Y80.067 E2.31206
G1 X144.815 Y81.009 E2.34684
G1 X145.144 Y81.887 E2.37802
G1 X145.413 Y82.859 E2.41157
G1 X145.59 Y83.825 E2.44423
G1 X145.685 Y84.955 E2.48195
G1 X145.7 Y85.63 E2.5044
G1 X145.699 Y134.1 E4.11652
G1 X145.688 Y134.863 E4.1419
G1 X145.631 Y135.836 E4.17432
G1 X145.486 Y136.799 E4.20671
G1 X145.257 Y137.745 E4.23908
G1 X144.946 Y138.669 E4.27151
G1 X144.554 Y139.56 E4.30388
G1 X144.086 Y140.412 E4.33622
G1 X143.564 Y141.193 E4.36746
G1 X142.931 Y141.978 E4.401
G1 X142.306 Y142.629 E4.43102
G1 X141.517 Y143.317 E4.46583
G1 X140.757 Y143.867 E4.49704
G1 X139.89 Y144.384 E4.53061
G1 X139.012 Y144.806 E4.56301
G1 X138.101 Y145.148 E4.59538
G1 X137.162 Y145.409 E4.62779
G1 X136.196 Y145.587 E4.66046
G1 X135.045 Y145.685 E4.69888
G1 X134.37 Y145.7 E4.72134
G1 X85.864 Y145.699 E6.33465
G1 X85.131 Y145.688 E6.35904
G1 X84.159 Y145.631 E6.39142
G1 X83.196 Y145.485 E6.42382
G1 X82.25 Y145.256 E6.45619
G1 X81.326 Y144.944 E6.48863
G1 X80.436 Y144.552 E6.52097
G1 X79.613 Y144.101 E6.55219
G1 X78.774 Y143.54 E6.58575
G1 X78.07 Y142.974 E6.6158
G1 X77.317 Y142.249 E6.65057
G1 X76.68 Y141.513 E6.68294
G1 X76.15 Y140.782 E6.71297
G1 X75.614 Y139.885 E6.74773
G1 X75.192 Y139.007 E6.78013
G1 X74.85 Y138.095 E6.81252
G1 X74.59 Y137.157 E6.8449
G1 X74.412 Y136.188 E6.87767
G1 X74.314 Y135.009 E6.91701
G1 X74.3 Y134.358 E6.93867
G1 X74.301 Y85.825 E8.55289
G1 X74.312 Y85.125 E8.57617
G1 X74.37 Y84.152 E8.60859
G1 X74.516 Y83.189 E8.64099
G1 X74.746 Y82.243 E8.67337
G1 X75.059 Y81.32 E8.70578
G1 X75.451 Y80.43 E8.73813
G1 X75.921 Y79.577 E8.77052
G1 X76.464 Y78.769 E8.8029
G1 X77.031 Y78.065 E8.83296
G1 X77.756 Y77.313 E8.86771
G0 F6000 X78.018 Y77.615
G1 F1200 X78.727 Y77 E8.89892
G1 X79.459 Y76.47 E8.92898
G1 X80.295 Y75.971 E8.96136
G1 X81.14 Y75.564 E8.99256
G1 X82.019 Y75.233 E9.0238
G1 X82.922 Y74.982 E9.05497
G1 X83.85 Y74.81 E9.08636
G1 X84.989 Y74.714 E9.12438
G1 X85.621 Y74.7 E9.14541
G1 X133.998 Y74.7 E10.75443
G1 X134.86 Y74.712 E10.7831
G1 X135.797 Y74.768 E10.81432
G1 X136.725 Y74.907 E10.84553
G1 X137.638 Y75.128 E10.87678
G1 X138.494 Y75.416 E10.90682
G1 X139.386 Y75.806 E10.9392
G1 X140.207 Y76.259 E10.97038
G1 X140.958 Y76.761 E11.00043
G1 X141.717 Y77.373 E11.03286
G1 X142.391 Y78.026 E11.06407
G1 X143.005 Y78.735 E11.09527
G1 X143.555 Y79.496 E11.1265
G1 X144.017 Y80.272 E11.15653
G1 X144.44 Y81.149 E11.18892
G1 X144.769 Y82.027 E11.2201
G1 X145.02 Y82.932 E11.25134
G1 X145.191 Y83.859 E11.28269
G1 X145.286 Y84.989 E11.32041
G1 X145.3 Y85.63 E11.34173
G1 X145.299 Y134.095 E12.95369
G1 X145.289 Y134.84 E12.97847
G1 X145.235 Y135.777 E13.00968
G1 X145.097 Y136.706 E13.04092
G1 X144.878 Y137.618 E13.07212
G1 X144.58 Y138.508 E13.10333
G1 X144.203 Y139.368 E13.13456
G1 X143.753 Y140.19 E13.16573
G1 X143.231 Y140.971 E13.19698
G1 X142.642 Y141.701 E13.22818
G1 X142.017 Y142.352 E13.25819
G1 X141.282 Y142.993 E13.29063
G1 X140.522 Y143.543 E13.32183
G1 X139.716 Y144.024 E13.35305
G1 X138.871 Y144.432 E13.38426
G1 X137.993 Y144.763 E13.41547
G1 X137.089 Y145.016 E13.44669
G1 X136.162 Y145.188 E13.47805
G1 X135.011 Y145.286 E13.51647
G1 X134.37 Y145.3 E13.53779
G1 X85.87 Y145.299 E15.15091
G1 X85.154 Y145.289 E15.17473
G1 X84.218 Y145.235 E15.20591
G1 X83.289 Y145.096 E15.23715
G1 X82.377 Y144.877 E15.26835
G1 X81.487 Y144.578 E15.29958
G1 X80.628 Y144.201 E15.33078
G1 X79.805 Y143.75 E15.36199
G1 X79.025 Y143.228 E15.39321
G1 X78.321 Y142.662 E15.42325
G1 X77.619 Y141.987 E15.45564
G1 X77.004 Y141.278 E15.48686
G1 X76.474 Y140.547 E15.51689
G1 X75.974 Y139.711 E15.54929
G1 X75.566 Y138.866 E15.5805
G1 X75.235 Y137.988 E15.61171
G1 X74.983 Y137.084 E15.64292
G1 X74.811 Y136.155 E15.67434
G1 X74.713 Y134.976 E15.71369
G1 X74.7 Y134.358 E15.73425
G1 X74.701 Y85.831 E17.34827
G1 X74.711 Y85.148 E17.37099
G1 X74.766 Y84.211 E17.4022
G1 X74.905 Y83.283 E17.43341
G1 X75.125 Y82.371 E17.46462
G1 X75.425 Y81.481 E17.49586
G1 X75.802 Y80.622 E17.52706
G1 X76.253 Y79.8 E17.55824
G1 X76.776 Y79.02 E17.58948
G1 X77.343 Y78.316 E17.61954
G1 X78.018 Y77.615 E17.65191
G0 F6000 X78.281 Y77.917
G1 F1200 X78.962 Y77.324 E17.68194
G1 X79.694 Y76.794 E17.712
G1 X80.469 Y76.331 E17.74203
G1 X81.282 Y75.938 E17.77206
G1 X82.127 Y75.618 E17.80211
G1 X82.996 Y75.375 E17.83213
G1 X83.884 Y75.209 E17.86217
G1 X85.023 Y75.113 E17.90019
G1 X85.63 Y75.1 E17.92038
G1 X133.993 Y75.1 E19.52894
G1 X134.837 Y75.111 E19.55702
G1 X135.739 Y75.164 E19.58707
G1 X136.632 Y75.296 E19.61709
G1 X137.51 Y75.507 E19.64713
G1 X138.366 Y75.795 E19.67717
G1 X139.193 Y76.157 E19.70719
G1 X139.985 Y76.592 E19.73725
G1 X140.736 Y77.094 E19.76729
G1 X141.439 Y77.661 E19.79733
G1 X142.089 Y78.288 E19.82737
G1 X142.681 Y78.97 E19.8574
G1 X143.211 Y79.701 E19.88744
G1 X143.673 Y80.477 E19.91747
G1 X144.066 Y81.29 E19.94751
G1 X144.384 Y82.135 E19.97754
G1 X144.627 Y83.005 E20.00758
G1 X144.792 Y83.893 E20.03762
G1 X144.887 Y85.023 E20.07534
G1 X144.9 Y85.63 E20.09553
G1 X144.899 Y134.09 E21.70732
G1 X144.89 Y134.817 E21.7315
G1 X144.839 Y135.719 E21.76155
G1 X144.708 Y136.613 E21.7916
G1 X144.499 Y137.491 E21.82162
G1 X144.213 Y138.348 E21.85167
G1 X143.852 Y139.176 E21.88171
G1 X143.42 Y139.968 E21.91172
G1 X142.919 Y140.72 E21.94177
G1 X142.353 Y141.424 E21.97182
G1 X141.728 Y142.075 E22.00183
G1 X141.047 Y142.669 E22.03189
G1 X140.316 Y143.2 E22.06194
G1 X139.542 Y143.664 E22.09195
G1 X138.729 Y144.058 E22.122
G1 X137.885 Y144.378 E22.15202
G1 X137.015 Y144.623 E22.18208
G1 X136.128 Y144.789 E22.2121
G1 X134.977 Y144.887 E22.25052
G1 X134.37 Y144.9 E22.27071
G1 X85.875 Y144.899 E23.88366
G1 X85.177 Y144.89 E23.90688
G1 X84.276 Y144.839 E23.9369
G1 X83.382 Y144.707 E23.96695
G1 X82.504 Y144.498 E23.99697
G1 X81.647 Y144.211 E24.02703
G1 X80.82 Y143.85 E24.05704
G1 X80.027 Y143.417 E24.08709
G1 X79.276 Y142.916 E24.11712
G1 X78.572 Y142.35 E24.14717
G1 X77.921 Y141.724 E24.1772
G1 X77.328 Y141.043 E24.20724
G1 X76.798 Y140.312 E24.23727
G1 X76.334 Y139.537 E24.26731
G1 X75.94 Y138.724 E24.29736
G1 X75.62 Y137.88 E24.32738
G1 X75.376 Y137.01 E24.35744
G1 X75.21 Y136.122 E24.38748
G1 X75.113 Y134.967 E24.42603
G1 X75.1 Y134.358 E24.44629
G1 X75.101 Y85.836 E26.06014
G1 X75.11 Y85.171 E26.08226
G1 X75.162 Y84.269 E26.11231
G1 X75.294 Y83.376 E26.14234
G1 X75.504 Y82.498 E26.17236
G1 X75.791 Y81.641 E26.20242
G1 X76.153 Y80.814 E26.23245
G1 X76.586 Y80.022 E26.26247
G1 X77.088 Y79.271 E26.29251
G1 X77.655 Y78.567 E26.32258
G1 X78.281 Y77.917 E26.35259
G1 F1500 E19.85259
;MESH:ZDM4MS - quadrado.stl
G0 F6000 X85.72 Y84.635
G0 X134.1 Y134.1
;TYPE:WALL-INNER
G1 F1500 E26.35259
G1 F1200 X134.1 Y85.9 E27.95573
G1 X85.9 Y85.9 E29.55887
G1 X85.9 Y134.1 E31.16201
G1 X134.1 Y134.1 E32.76515
G0 F6000 X134.5 Y134.5
;TYPE:WALL-OUTER
G1 F1200 X134.5 Y85.5 E34.39489
G1 X85.5 Y85.5 E36.02464
G1 X85.5 Y134.5 E37.65439
G1 X134.5 Y134.5 E39.28413
G0 F6000 X134.23 Y134.23
G0 X134 Y133.74
G0 X133.74 Y133.74
;TYPE:SKIN
G1 F1200 X86.26 Y133.74 E40.86333
G1 X86.26 Y86.26 E42.44252
G1 X133.74 Y86.26 E44.02171
G1 X133.74 Y133.74 E45.6009
G1 F1500 E39.1009
G0 F6000 X134 Y133.74
G0 X134 Y86.588
G0 X133.539 Y86.588
G1 F1500 E45.6009
G1 F1200 X133.411 Y86.46 E45.60692
G0 F6000 X132.846 Y86.46
G1 F1200 X133.539 Y87.153 E45.63952
G0 F6000 X133.539 Y87.719
G1 F1200 X132.28 Y86.46 E45.69874
G0 F6000 X131.714 Y86.46
G1 F1200 X133.539 Y88.285 E45.78458
G0 F6000 X133.539 Y88.85
G1 F1200 X131.149 Y86.46 E45.897
G0 F6000 X130.583 Y86.46
G1 F1200 X133.539 Y89.416 E46.03604
G0 F6000 X133.539 Y89.982
G1 F1200 X130.017 Y86.46 E46.2017
G0 F6000 X129.452 Y86.46
G1 F1200 X133.539 Y90.547 E46.39394
G0 F6000 X133.539 Y91.113
G1 F1200 X128.886 Y86.46 E46.6128
G0 F6000 X128.32 Y86.46
G1 F1200 X133.539 Y91.679 E46.85829
G0 F6000 X133.539 Y92.244
G1 F1200 X127.755 Y86.46 E47.13035
G0 F6000 X127.189 Y86.46
G1 F1200 X133.539 Y92.81 E47.42904
G0 F6000 X133.539 Y93.376
G1 F1200 X126.623 Y86.46 E47.75434
G0 F6000 X126.058 Y86.46
G1 F1200 X133.539 Y93.941 E48.10623
G0 F6000 X133.539 Y94.507
G1 F1200 X125.492 Y86.46 E48.48473
G0 F6000 X124.926 Y86.46
G1 F1200 X133.539 Y95.073 E48.88986
G0 F6000 X133.539 Y95.639
G1 F1200 X124.36 Y86.46 E49.32161
G0 F6000 X123.795 Y86.46
G1 F1200 X133.539 Y96.204 E49.77994
G0 F6000 X133.539 Y96.77
G1 F1200 X123.229 Y86.46 E50.26489
G0 F6000 X122.663 Y86.46
G1 F1200 X133.539 Y97.336 E50.77647
G0 F6000 X133.539 Y97.901
G1 F1200 X122.098 Y86.46 E51.31462
G0 F6000 X121.532 Y86.46
G1 F1200 X133.539 Y98.467 E51.87939
G0 F6000 X133.539 Y99.033
G1 F1200 X120.966 Y86.46 E52.47078
G0 F6000 X120.401 Y86.46
G1 F1200 X133.539 Y99.598 E53.08876
G0 F6000 X133.539 Y100.164
G1 F1200 X119.835 Y86.46 E53.73335
G0 F6000 X119.269 Y86.46
G1 F1200 X133.539 Y100.73 E54.40457
G0 F6000 X133.539 Y101.295
G1 F1200 X118.704 Y86.46 E55.10236
G0 F6000 X118.138 Y86.46
G1 F1200 X133.539 Y101.861 E55.82678
G0 F6000 X133.539 Y102.427
G1 F1200 X117.572 Y86.46 E56.57781
G0 F6000 X117.007 Y86.46
G1 F1200 X133.539 Y102.992 E57.35543
G0 F6000 X133.539 Y103.558
G1 F1200 X116.441 Y86.46 E58.15967
G0 F6000 X115.875 Y86.46
G1 F1200 X133.539 Y104.124 E58.99053
G0 F6000 X133.539 Y104.689
G1 F1200 X115.31 Y86.46 E59.84796
G0 F6000 X114.744 Y86.46
G1 F1200 X133.539 Y105.255 E60.73202
G0 F6000 X133.539 Y105.821
G1 F1200 X114.178 Y86.46 E61.6427
G0 F6000 X113.612 Y86.46
G1 F1200 X133.539 Y106.387 E62.58001
G0 F6000 X133.539 Y106.952
G1 F1200 X113.047 Y86.46 E63.54389
G0 F6000 X112.481 Y86.46
G1 F1200 X133.539 Y107.518 E64.53439
G0 F6000 X133.539 Y108.084
G1 F1200 X111.915 Y86.46 E65.55152
G0 F6000 X111.35 Y86.46
G1 F1200 X133.539 Y108.649 E66.59522
G0 F6000 X133.539 Y109.215
G1 F1200 X110.784 Y86.46 E67.66555
G0 F6000 X110.218 Y86.46
G1 F1200 X133.539 Y109.781 E68.7625
G0 F6000 X133.539 Y110.346
G1 F1200 X109.653 Y86.46 E69.88602
G0 F6000 X109.087 Y86.46
G1 F1200 X133.539 Y110.912 E71.03617
G0 F6000 X133.539 Y111.478
G1 F1200 X108.521 Y86.46 E72.21294
G0 F6000 X107.956 Y86.46
G1 F1200 X133.539 Y112.043 E73.41628
G0 F6000 X133.539 Y112.609
G1 F1200 X107.39 Y86.46 E74.64625
G0 F6000 X106.824 Y86.46
G1 F1200 X133.539 Y113.175 E75.90284
G0 F6000 X133.539 Y113.74
G1 F1200 X106.259 Y86.46 E77.18601
G0 F6000 X105.693 Y86.46
G1 F1200 X133.539 Y114.306 E78.4958
G0 F6000 X133.539 Y114.872
G1 F1200 X105.127 Y86.46 E79.83222
G0 F6000 X104.562 Y86.46
G1 F1200 X133.539 Y115.438 E81.19523
G0 F6000 X133.539 Y116.003
G1 F1200 X103.996 Y86.46 E82.58484
G0 F6000 X103.43 Y86.46
G1 F1200 X133.539 Y116.569 E84.00108
G0 F6000 X133.539 Y117.135
G1 F1200 X102.864 Y86.46 E85.44393
G0 F6000 X102.299 Y86.46
G1 F1200 X133.539 Y117.7 E86.91337
G0 F6000 X133.539 Y118.266
G1 F1200 X101.733 Y86.46 E88.40942
G0 F6000 X101.167 Y86.46
G1 F1200 X133.539 Y118.832 E89.9321
G0 F6000 X133.539 Y119.397
G1 F1200 X100.602 Y86.46 E91.48136
G0 F6000 X100.036 Y86.46
G1 F1200 X133.539 Y119.963 E93.05724
G0 F6000 X133.539 Y120.529
G1 F1200 X99.47 Y86.46 E94.65974
G0 F6000 X98.905 Y86.46
G1 F1200 X133.539 Y121.094 E96.28882
G0 F6000 X133.539 Y121.66
G1 F1200 X98.339 Y86.46 E97.94452
G0 F6000 X97.773 Y86.46
G1 F1200 X133.539 Y122.226 E99.62684
G0 F6000 X133.539 Y122.791
G1 F1200 X97.208 Y86.46 E101.33574
G0 F6000 X96.642 Y86.46
G1 F1200 X133.539 Y123.357 E103.07126
G0 F6000 X133.539 Y123.923
G1 F1200 X96.076 Y86.46 E104.8334
G0 F6000 X95.511 Y86.46
G1 F1200 X133.539 Y124.488 E106.62213
G0 F6000 X133.539 Y125.054
G1 F1200 X94.945 Y86.46 E108.43747
G0 F6000 X94.379 Y86.46
G1 F1200 X133.539 Y125.62 E110.27944
G0 F6000 X133.539 Y126.186
G1 F1200 X93.813 Y86.46 E112.14802
G0 F6000 X93.248 Y86.46
G1 F1200 X133.539 Y126.751 E114.04319
G0 F6000 X133.539 Y127.317
G1 F1200 X92.682 Y86.46 E115.96498
G0 F6000 X92.116 Y86.46
G1 F1200 X133.539 Y127.883 E117.91339
G0 F6000 X133.539 Y128.448
G1 F1200 X91.551 Y86.46 E119.88838
G0 F6000 X90.985 Y86.46
G1 F1200 X133.539 Y129.014 E121.88998
G0 F6000 X133.539 Y129.58
G1 F1200 X90.419 Y86.46 E123.91822
G0 F6000 X89.854 Y86.46
G1 F1200 X133.539 Y130.145 E125.97303
G0 F6000 X133.539 Y130.711
G1 F1200 X89.288 Y86.46 E128.05446
G0 F6000 X88.722 Y86.46
G1 F1200 X133.539 Y131.277 E130.16251
G0 F6000 X133.539 Y131.842
G1 F1200 X88.157 Y86.46 E132.29714
G0 F6000 X87.591 Y86.46
G1 F1200 X133.539 Y132.408 E134.45839
G0 F6000 X133.539 Y132.974
G1 F1200 X87.025 Y86.46 E136.64627
G0 F6000 X86.459 Y86.459
G1 F1200 X133.539 Y133.539 E138.86077
G0 F6000 X132.973 Y133.539
G1 F1200 X86.459 Y87.025 E141.04865
G0 F6000 X86.459 Y87.59
G1 F1200 X132.407 Y133.539 E143.20992
G0 F6000 X131.842 Y133.539
G1 F1200 X86.459 Y88.156 E145.3446
G0 F6000 X86.459 Y88.722
G1 F1200 X131.276 Y133.539 E147.45265
G0 F6000 X130.71 Y133.539
G1 F1200 X86.459 Y89.287 E149.53411
G0 F6000 X86.459 Y89.853
G1 F1200 X130.145 Y133.539 E151.58896
G0 F6000 X129.579 Y133.539
G1 F1200 X86.459 Y90.419 E153.6172
G0 F6000 X86.459 Y90.984
G1 F1200 X129.013 Y133.539 E155.61883
G0 F6000 X128.448 Y133.539
G1 F1200 X86.459 Y91.55 E157.59386
G0 F6000 X86.459 Y92.116
G1 F1200 X127.882 Y133.539 E159.54227
G0 F6000 X127.316 Y133.539
G1 F1200 X86.459 Y92.681 E161.46409
G0 F6000 X86.459 Y93.247
G1 F1200 X126.751 Y133.539 E163.3593
G0 F6000 X126.185 Y133.539
G1 F1200 X86.459 Y93.813 E165.22789
G0 F6000 X86.459 Y94.378
G1 F1200 X125.619 Y133.539 E167.06988
G0 F6000 X125.053 Y133.539
G1 F1200 X86.459 Y94.944 E168.88524
G0 F6000 X86.459 Y95.51
G1 F1200 X124.488 Y133.539 E170.67401
G0 F6000 X123.922 Y133.539
G1 F1200 X86.459 Y96.076 E172.43616
G0 F6000 X86.459 Y96.641
G1 F1200 X123.356 Y133.539 E174.1717
G0 F6000 X122.791 Y133.539
G1 F1200 X86.459 Y97.207 E175.88065
G0 F6000 X86.459 Y97.773
G1 F1200 X122.225 Y133.539 E177.56297
G0 F6000 X121.659 Y133.539
G1 F1200 X86.459 Y98.338 E179.21869
G0 F6000 X86.459 Y98.904
G1 F1200 X121.094 Y133.539 E180.84782
G0 F6000 X120.528 Y133.539
G1 F1200 X86.459 Y99.47 E182.45032
G0 F6000 X86.459 Y100.035
G1 F1200 X119.962 Y133.539 E184.02622
G0 F6000 X119.397 Y133.539
G1 F1200 X86.459 Y100.601 E185.57552
G0 F6000 X86.459 Y101.167
G1 F1200 X118.831 Y133.539 E187.0982
G0 F6000 X118.265 Y133.539
G1 F1200 X86.459 Y101.732 E188.59428
G0 F6000 X86.459 Y102.298
G1 F1200 X117.7 Y133.539 E190.06376
G0 F6000 X117.134 Y133.539
G1 F1200 X86.459 Y102.864 E191.50662
G0 F6000 X86.459 Y103.429
G1 F1200 X116.568 Y133.539 E192.92288
G0 F6000 X116.002 Y133.539
G1 F1200 X86.459 Y103.995 E194.31252
G0 F6000 X86.459 Y104.561
G1 F1200 X115.437 Y133.539 E195.67555
G0 F6000 X114.871 Y133.539
G1 F1200 X86.459 Y105.126 E197.01199
G0 F6000 X86.459 Y105.692
G1 F1200 X114.305 Y133.539 E198.3218
